; generated by Slic3r 1.0.0RC2 on 2014-03-23 at 13:20:14

; layer_height = 0.4
; perimeters = 3
; top_solid_layers = 3
; bottom_solid_layers = 3
; fill_density = 0.4
; perimeter_speed = 30
; infill_speed = 60
; travel_speed = 130
; nozzle_diameter = 0.5
; filament_diameter = 3
; extrusion_multiplier = 1
; perimeters extrusion width = 0.50mm
; infill extrusion width = 0.53mm
; solid infill extrusion width = 0.53mm
; top infill extrusion width = 0.53mm
; first layer extrusion width = 0.70mm

G21 ; set units to millimeters
M107
M104 S200 ; set temperature
G28 ; home all axes
G1 Z5 F5000 ; lift nozzle

M109 S200 ; wait for temperature to be reached
G90 ; use absolute coordinates
G92 E0
M82 ; use absolute distances for extrusion
G1 F1800.000 E-1.00000
G92 E0
G1 Z0.350 F7800.000
G1 X87.790 Y87.790 F7800.000
G1 E1.00000 F1800.000
G1 X88.800 Y86.960 E1.04253 F540.000
G1 X89.950 Y86.350 E1.08489
G1 X91.200 Y85.970 E1.12739
G1 X92.500 Y85.840 E1.16990
G1 X107.500 Y85.840 E1.65793
G1 X108.800 Y85.970 E1.70043
G1 X110.050 Y86.350 E1.74294
G1 X111.200 Y86.960 E1.78529
G1 X112.210 Y87.790 E1.82783
G1 X113.040 Y88.800 E1.87036
G1 X113.650 Y89.950 E1.91271
G1 X114.030 Y91.200 E1.95522
G1 X114.160 Y92.500 E1.99773
G1 X114.160 Y107.500 E2.48576
G1 X114.030 Y108.800 E2.52826
G1 X113.650 Y110.050 E2.57077
G1 X113.040 Y111.200 E2.61312
G1 X112.210 Y112.210 E2.65565
G1 X111.200 Y113.040 E2.69819
G1 X110.050 Y113.650 E2.74054
G1 X108.800 Y114.030 E2.78305
G1 X107.500 Y114.160 E2.82555
G1 X92.500 Y114.160 E3.31358
G1 X91.200 Y114.030 E3.35609
G1 X89.950 Y113.650 E3.39860
G1 X88.800 Y113.040 E3.44095
G1 X87.790 Y112.210 E3.48348
G1 X86.960 Y111.200 E3.52602
G1 X86.350 Y110.050 E3.56837
G1 X85.970 Y108.800 E3.61088
G1 X85.840 Y107.500 E3.65338
G1 X85.840 Y92.500 E4.14141
G1 X85.970 Y91.200 E4.18392
G1 X86.350 Y89.950 E4.22642
G1 X86.960 Y88.800 E4.26878
G1 X87.727 Y87.866 E4.30810
G1 F1800.000 E3.30810
G92 E0
G1 X93.507 Y105.007 F7800.000
G1 E1.00000 F1800.000
G1 X106.493 Y105.007 E1.42250 F540.000
G1 X106.493 Y106.493 E1.47084
G1 X93.507 Y106.493 E1.89334
G1 X93.507 Y105.106 E1.93847
G1 X92.850 Y104.350 F7800.000
G1 X107.150 Y104.350 E2.40373 F540.000
G1 X107.150 Y107.150 E2.49482
G1 X92.850 Y107.150 E2.96008
G1 X92.850 Y104.449 E3.04797
G1 X93.419 Y104.679 F7800.000
G1 F1800.000 E2.04797
G92 E0
G1 X93.507 Y94.993 F7800.000
G1 E1.00000 F1800.000
G1 X93.507 Y93.507 E1.04834 F540.000
G1 X106.493 Y93.507 E1.47084
G1 X106.493 Y94.993 E1.51918
G1 X93.606 Y94.993 E1.93847
G1 X92.850 Y95.650 F7800.000
G1 X92.850 Y92.850 E2.02957 F540.000
G1 X107.150 Y92.850 E2.49482
G1 X107.150 Y95.650 E2.58592
G1 X92.949 Y95.650 E3.04797
G1 X93.179 Y95.081 F7800.000
G1 X94.151 Y94.280 F7800.000
G1 X95.002 Y94.151 E3.07750 F360.000
G1 X95.200 Y94.349 E3.08710 F360.000
G1 X95.982 Y94.151 E3.11477 F360.000
G1 X96.180 Y94.349 E3.12438 F360.000
G1 X96.962 Y94.151 E3.15204 F360.000
G1 X97.160 Y94.349 E3.16165 F360.000
G1 X97.941 Y94.151 E3.18932 F360.000
G1 X98.139 Y94.349 E3.19892 F360.000
G1 X98.921 Y94.151 E3.22659 F360.000
G1 X99.119 Y94.349 E3.23620 F360.000
G1 X99.901 Y94.151 E3.26386 F360.000
G1 X100.099 Y94.349 E3.27347 F360.000
G1 X100.881 Y94.151 E3.30113 F360.000
G1 X101.079 Y94.349 E3.31074 F360.000
G1 X101.861 Y94.151 E3.33841 F360.000
G1 X102.059 Y94.349 E3.34802 F360.000
G1 X102.840 Y94.151 E3.37568 F360.000
G1 X103.038 Y94.349 E3.38529 F360.000
G1 X103.820 Y94.151 E3.41295 F360.000
G1 X104.018 Y94.349 E3.42256 F360.000
G1 X104.800 Y94.151 E3.45023 F360.000
G1 X104.998 Y94.349 E3.45984 F360.000
G1 X105.780 Y94.151 E3.48750 F360.000
G1 X105.849 Y94.220 E3.49086 F360.000
G1 F1800.000 E2.49086
G92 E0
G1 X105.780 Y105.651 F7800.000
G1 E1.00000 F1800.000
G1 X105.849 Y105.720 E1.00336 F360.000
G1 X105.780 Y105.651 F7800.000
G1 X104.998 Y105.849 E1.03103 F360.000
G1 X104.800 Y105.651 E1.04063 F360.000
G1 X104.018 Y105.849 E1.06830 F360.000
G1 X103.820 Y105.651 E1.07791 F360.000
G1 X103.038 Y105.849 E1.10557 F360.000
G1 X102.840 Y105.651 E1.11518 F360.000
G1 X102.059 Y105.849 E1.14284 F360.000
G1 X101.861 Y105.651 E1.15245 F360.000
G1 X101.079 Y105.849 E1.18012 F360.000
G1 X100.881 Y105.651 E1.18973 F360.000
G1 X100.099 Y105.849 E1.21739 F360.000
G1 X99.901 Y105.651 E1.22700 F360.000
G1 X99.119 Y105.849 E1.25466 F360.000
G1 X98.921 Y105.651 E1.26427 F360.000
G1 X98.139 Y105.849 E1.29194 F360.000
G1 X97.941 Y105.651 E1.30155 F360.000
G1 X97.160 Y105.849 E1.32921 F360.000
G1 X96.962 Y105.651 E1.33882 F360.000
G1 X96.180 Y105.849 E1.36648 F360.000
G1 X95.982 Y105.651 E1.37609 F360.000
G1 X95.200 Y105.849 E1.40376 F360.000
G1 X95.002 Y105.651 E1.41336 F360.000
G1 X94.151 Y105.780 E1.44289 F360.000
G1 X94.220 Y105.849 E1.44625 F360.000
G1 F1800.000 E0.44625
G92 E0
G1 X94.220 Y94.349 F7800.000
G1 E1.00000 F1800.000
G1 X94.151 Y94.280 E1.00336 F360.000
M106 S255
G1 F1800.000 E0.00336
G92 E0
G1 Z0.750 F7800.000
G1 X93.750 Y105.250 F7800.000
G1 E1.00000 F1800.000
G1 X106.250 Y105.250 E1.35368 F600.000
G1 X106.250 Y106.250 E1.38197
G1 X93.750 Y106.250 E1.73565
G1 X93.750 Y105.325 E1.76182
G1 X93.250 Y104.750 F7800.000
G1 X106.750 Y104.750 E2.14379 F600.000
G1 X106.750 Y106.750 E2.20038
G1 X93.250 Y106.750 E2.58235
G1 X93.250 Y104.825 E2.63682
G1 X92.750 Y104.250 F7800.000
G1 X107.250 Y104.250 E3.04709 F600.000
G1 X107.250 Y107.250 E3.13197
G1 X92.750 Y107.250 E3.54223
G1 X92.750 Y104.325 E3.62500
G1 X93.183 Y104.500 F7800.000
G1 F1800.000 E2.62500
G92 E0
G1 X93.750 Y94.750 F7800.000
G1 E1.00000 F1800.000
G1 X93.750 Y93.750 E1.02829 F600.000
G1 X106.250 Y93.750 E1.38197
G1 X106.250 Y94.750 E1.41027
G1 X93.825 Y94.750 E1.76182
G1 X93.250 Y95.250 F7800.000
G1 X93.250 Y93.250 E1.81841 F600.000
G1 X106.750 Y93.250 E2.20038
G1 X106.750 Y95.250 E2.25697
G1 X93.325 Y95.250 E2.63682
G1 X92.750 Y95.750 F7800.000
G1 X92.750 Y92.750 E2.72170 F600.000
G1 X107.250 Y92.750 E3.13197
G1 X107.250 Y95.750 E3.21685
G1 X92.825 Y95.750 E3.62500
G1 X93.000 Y95.317 F7800.000
G1 X94.250 Y94.250 F7800.000
G1 X94.275 Y94.225 E3.62603 F600.000
G1 X94.943 Y94.275 E3.64529 F600.000
G1 X94.994 Y94.225 E3.64736 F600.000
G1 X95.662 Y94.275 E3.66663 F600.000
G1 X95.713 Y94.225 E3.66869 F600.000
G1 X96.381 Y94.275 E3.68796 F600.000
G1 X96.432 Y94.225 E3.69003 F600.000
G1 X97.100 Y94.275 E3.70929 F600.000
G1 X97.150 Y94.225 E3.71136 F600.000
G1 X97.818 Y94.275 E3.73062 F600.000
G1 X97.869 Y94.225 E3.73269 F600.000
G1 X98.537 Y94.275 E3.75196 F600.000
G1 X98.588 Y94.225 E3.75402 F600.000
G1 X99.256 Y94.275 E3.77329 F600.000
G1 X99.307 Y94.225 E3.77536 F600.000
G1 X99.975 Y94.275 E3.79462 F600.000
G1 X100.025 Y94.225 E3.79669 F600.000
G1 X100.693 Y94.275 E3.81595 F600.000
G1 X100.744 Y94.225 E3.81802 F600.000
G1 X101.412 Y94.275 E3.83729 F600.000
G1 X101.463 Y94.225 E3.83935 F600.000
G1 X102.131 Y94.275 E3.85862 F600.000
G1 X102.182 Y94.225 E3.86068 F600.000
G1 X102.850 Y94.275 E3.87995 F600.000
G1 X102.900 Y94.225 E3.88202 F600.000
G1 X103.568 Y94.275 E3.90128 F600.000
G1 X103.619 Y94.225 E3.90335 F600.000
G1 X104.287 Y94.275 E3.92261 F600.000
G1 X104.338 Y94.225 E3.92468 F600.000
G1 X105.006 Y94.275 E3.94395 F600.000
G1 X105.057 Y94.225 E3.94601 F600.000
G1 X105.725 Y94.275 E3.96528 F600.000
G1 X105.750 Y94.250 E3.96631 F600.000
G1 F1800.000 E2.96631
G92 E0
G1 X105.057 Y105.725 F7800.000
G1 E1.00000 F1800.000
G1 X105.006 Y105.775 E1.00207 F600.000
G1 X104.338 Y105.725 E1.02133 F600.000
G1 X104.287 Y105.775 E1.02340 F600.000
G1 X103.619 Y105.725 E1.04266 F600.000
G1 X103.568 Y105.775 E1.04473 F600.000
G1 X102.900 Y105.725 E1.06400 F600.000
G1 X102.850 Y105.775 E1.06606 F600.000
G1 X102.182 Y105.725 E1.08533 F600.000
G1 X102.131 Y105.775 E1.08740 F600.000
G1 X101.463 Y105.725 E1.10666 F600.000
G1 X101.412 Y105.775 E1.10873 F600.000
G1 X100.744 Y105.725 E1.12799 F600.000
G1 X100.693 Y105.775 E1.13006 F600.000
G1 X100.025 Y105.725 E1.14933 F600.000
G1 X99.975 Y105.775 E1.15139 F600.000
G1 X99.307 Y105.725 E1.17066 F600.000
G1 X99.256 Y105.775 E1.17273 F600.000
G1 X98.588 Y105.725 E1.19199 F600.000
G1 X98.537 Y105.775 E1.19406 F600.000
G1 X97.869 Y105.725 E1.21332 F600.000
G1 X97.818 Y105.775 E1.21539 F600.000
G1 X97.150 Y105.725 E1.23466 F600.000
G1 X97.100 Y105.775 E1.23672 F600.000
G1 X96.432 Y105.725 E1.25599 F600.000
G1 X96.381 Y105.775 E1.25806 F600.000
G1 X95.713 Y105.725 E1.27732 F600.000
G1 X95.662 Y105.775 E1.27939 F600.000
G1 X94.994 Y105.725 E1.29865 F600.000
G1 X94.943 Y105.775 E1.30072 F600.000
G1 X94.275 Y105.725 E1.31999 F600.000
G1 X94.250 Y105.750 E1.32102 F600.000
G1 X105.057 Y105.725 F7800.000
G1 X105.725 Y105.775 E1.34028 F600.000
G1 X105.750 Y105.750 E1.34132 F600.000
G1 F1800.000 E0.34132
G92 E0
G1 Z1.150 F7800.000
G1 X106.250 Y106.250 F7800.000
G1 E1.00000 F1800.000
G1 X93.750 Y106.250 E1.35368 F600.000
G1 X93.750 Y105.250 E1.38197
G1 X106.250 Y105.250 E1.73565
G1 X106.250 Y106.175 E1.76182
G1 X106.750 Y106.750 F7800.000
G1 X93.250 Y106.750 E2.14379 F600.000
G1 X93.250 Y104.750 E2.20038
G1 X106.750 Y104.750 E2.58235
G1 X106.750 Y106.675 E2.63682
G1 X107.250 Y107.250 F7800.000
G1 X92.750 Y107.250 E3.04709 F600.000
G1 X92.750 Y104.250 E3.13197
G1 X107.250 Y104.250 E3.54223
G1 X107.250 Y107.175 E3.62500
G1 X106.817 Y107.000 F7800.000
G1 F1800.000 E2.62500
G92 E0
G1 X106.250 Y94.750 F7800.000
G1 E1.00000 F1800.000
G1 X93.750 Y94.750 E1.35368 F600.000
G1 X93.750 Y93.750 E1.38197
G1 X106.250 Y93.750 E1.73565
G1 X106.250 Y94.675 E1.76182
G1 X106.750 Y95.250 F7800.000
G1 X93.250 Y95.250 E2.14379 F600.000
G1 X93.250 Y93.250 E2.20038
G1 X106.750 Y93.250 E2.58235
G1 X106.750 Y95.175 E2.63682
G1 X107.250 Y95.750 F7800.000
G1 X92.750 Y95.750 E3.04709 F600.000
G1 X92.750 Y92.750 E3.13197
G1 X107.250 Y92.750 E3.54223
G1 X107.250 Y95.675 E3.62500
G1 X106.817 Y95.500 F7800.000
G1 X105.750 Y94.250 F7800.000
G1 X105.725 Y94.225 E3.62603 F600.000
G1 X105.057 Y94.275 E3.64529 F600.000
G1 X105.006 Y94.225 E3.64736 F600.000
G1 X104.338 Y94.275 E3.66663 F600.000
G1 X104.287 Y94.225 E3.66869 F600.000
G1 X103.619 Y94.275 E3.68796 F600.000
G1 X103.568 Y94.225 E3.69003 F600.000
G1 X102.900 Y94.275 E3.70929 F600.000
G1 X102.850 Y94.225 E3.71136 F600.000
G1 X102.182 Y94.275 E3.73062 F600.000
G1 X102.131 Y94.225 E3.73269 F600.000
G1 X101.463 Y94.275 E3.75196 F600.000
G1 X101.412 Y94.225 E3.75402 F600.000
G1 X100.744 Y94.275 E3.77329 F600.000
G1 X100.693 Y94.225 E3.77536 F600.000
G1 X100.025 Y94.275 E3.79462 F600.000
G1 X99.975 Y94.225 E3.79669 F600.000
G1 X99.307 Y94.275 E3.81595 F600.000
G1 X99.256 Y94.225 E3.81802 F600.000
G1 X98.588 Y94.275 E3.83729 F600.000
G1 X98.537 Y94.225 E3.83935 F600.000
G1 X97.869 Y94.275 E3.85862 F600.000
G1 X97.818 Y94.225 E3.86068 F600.000
G1 X97.150 Y94.275 E3.87995 F600.000
G1 X97.100 Y94.225 E3.88202 F600.000
G1 X96.432 Y94.275 E3.90128 F600.000
G1 X96.381 Y94.225 E3.90335 F600.000
G1 X95.713 Y94.275 E3.92261 F600.000
G1 X95.662 Y94.225 E3.92468 F600.000
G1 X94.994 Y94.275 E3.94395 F600.000
G1 X94.943 Y94.225 E3.94601 F600.000
G1 X94.250 Y94.250 E3.96597 F600.000
G1 X94.275 Y94.275 E3.96700 F600.000
G1 F1800.000 E2.96700
G92 E0
G1 X94.943 Y105.725 F7800.000
G1 E1.00000 F1800.000
G1 X94.994 Y105.775 E1.00207 F600.000
G1 X95.662 Y105.725 E1.02133 F600.000
G1 X95.713 Y105.775 E1.02340 F600.000
G1 X96.381 Y105.725 E1.04266 F600.000
G1 X96.432 Y105.775 E1.04473 F600.000
G1 X97.100 Y105.725 E1.06400 F600.000
G1 X97.150 Y105.775 E1.06606 F600.000
G1 X97.818 Y105.725 E1.08533 F600.000
G1 X97.869 Y105.775 E1.08740 F600.000
G1 X98.537 Y105.725 E1.10666 F600.000
G1 X98.588 Y105.775 E1.10873 F600.000
G1 X99.256 Y105.725 E1.12799 F600.000
G1 X99.307 Y105.775 E1.13006 F600.000
G1 X99.975 Y105.725 E1.14933 F600.000
G1 X100.025 Y105.775 E1.15139 F600.000
G1 X100.693 Y105.725 E1.17066 F600.000
G1 X100.744 Y105.775 E1.17273 F600.000
G1 X101.412 Y105.725 E1.19199 F600.000
G1 X101.463 Y105.775 E1.19406 F600.000
G1 X102.131 Y105.725 E1.21332 F600.000
G1 X102.182 Y105.775 E1.21539 F600.000
G1 X102.850 Y105.725 E1.23466 F600.000
G1 X102.900 Y105.775 E1.23672 F600.000
G1 X103.568 Y105.725 E1.25599 F600.000
G1 X103.619 Y105.775 E1.25806 F600.000
G1 X104.287 Y105.725 E1.27732 F600.000
G1 X104.338 Y105.775 E1.27939 F600.000
G1 X105.006 Y105.725 E1.29865 F600.000
G1 X105.057 Y105.775 E1.30072 F600.000
G1 X105.725 Y105.725 E1.31999 F600.000
G1 X105.750 Y105.750 E1.32102 F600.000
G1 X94.943 Y105.725 F7800.000
G1 X94.250 Y105.750 E1.34097 F600.000
G1 X94.275 Y105.775 E1.34201 F600.000
G1 F1800.000 E0.34201
G92 E0
G1 Z1.550 F7800.000
G1 X93.750 Y106.250 F7800.000
G1 E1.00000 F1800.000
G1 X93.750 Y105.250 E1.02829 F600.000
G1 X106.250 Y105.250 E1.38197
G1 X106.250 Y106.250 E1.41027
G1 X93.825 Y106.250 E1.76182
G1 X93.250 Y106.750 F7800.000
G1 X93.250 Y104.750 E1.81841 F600.000
G1 X106.750 Y104.750 E2.20038
G1 X106.750 Y106.750 E2.25697
G1 X93.325 Y106.750 E2.63682
G1 X92.750 Y107.250 F7800.000
G1 X92.750 Y104.250 E2.72170 F600.000
G1 X107.250 Y104.250 E3.13197
G1 X107.250 Y107.250 E3.21685
G1 X92.825 Y107.250 E3.62500
G1 X93.000 Y106.817 F7800.000
G1 F1800.000 E2.62500
G92 E0
G1 X93.750 Y94.750 F7800.000
G1 E1.00000 F1800.000
G1 X93.750 Y93.750 E1.02829 F600.000
G1 X106.250 Y93.750 E1.38197
G1 X106.250 Y94.750 E1.41027
G1 X93.825 Y94.750 E1.76182
G1 X93.250 Y95.250 F7800.000
G1 X93.250 Y93.250 E1.81841 F600.000
G1 X106.750 Y93.250 E2.20038
G1 X106.750 Y95.250 E2.25697
G1 X93.325 Y95.250 E2.63682
G1 X92.750 Y95.750 F7800.000
G1 X92.750 Y92.750 E2.72170 F600.000
G1 X107.250 Y92.750 E3.13197
G1 X107.250 Y95.750 E3.21685
G1 X92.825 Y95.750 E3.62500
G1 X93.000 Y95.317 F7800.000
G1 X94.250 Y94.250 F7800.000
G1 X94.275 Y94.225 E3.62603 F600.000
G1 X94.943 Y94.275 E3.64529 F600.000
G1 X94.994 Y94.225 E3.64736 F600.000
G1 X95.662 Y94.275 E3.66663 F600.000
G1 X95.713 Y94.225 E3.66869 F600.000
G1 X96.381 Y94.275 E3.68796 F600.000
G1 X96.432 Y94.225 E3.69003 F600.000
G1 X97.100 Y94.275 E3.70929 F600.000
G1 X97.150 Y94.225 E3.71136 F600.000
G1 X97.818 Y94.275 E3.73062 F600.000
G1 X97.869 Y94.225 E3.73269 F600.000
G1 X98.537 Y94.275 E3.75196 F600.000
G1 X98.588 Y94.225 E3.75402 F600.000
G1 X99.256 Y94.275 E3.77329 F600.000
G1 X99.307 Y94.225 E3.77536 F600.000
G1 X99.975 Y94.275 E3.79462 F600.000
G1 X100.025 Y94.225 E3.79669 F600.000
G1 X100.693 Y94.275 E3.81595 F600.000
G1 X100.744 Y94.225 E3.81802 F600.000
G1 X101.412 Y94.275 E3.83729 F600.000
G1 X101.463 Y94.225 E3.83935 F600.000
G1 X102.131 Y94.275 E3.85862 F600.000
G1 X102.182 Y94.225 E3.86068 F600.000
G1 X102.850 Y94.275 E3.87995 F600.000
G1 X102.900 Y94.225 E3.88202 F600.000
G1 X103.568 Y94.275 E3.90128 F600.000
G1 X103.619 Y94.225 E3.90335 F600.000
G1 X104.287 Y94.275 E3.92261 F600.000
G1 X104.338 Y94.225 E3.92468 F600.000
G1 X105.006 Y94.275 E3.94395 F600.000
G1 X105.057 Y94.225 E3.94601 F600.000
G1 X105.725 Y94.275 E3.96528 F600.000
G1 X105.750 Y94.250 E3.96631 F600.000
G1 F1800.000 E2.96631
G92 E0
G1 X105.057 Y105.725 F7800.000
G1 E1.00000 F1800.000
G1 X105.006 Y105.775 E1.00207 F600.000
G1 X104.338 Y105.725 E1.02133 F600.000
G1 X104.287 Y105.775 E1.02340 F600.000
G1 X103.619 Y105.725 E1.04266 F600.000
G1 X103.568 Y105.775 E1.04473 F600.000
G1 X102.900 Y105.725 E1.06400 F600.000
G1 X102.850 Y105.775 E1.06606 F600.000
G1 X102.182 Y105.725 E1.08533 F600.000
G1 X102.131 Y105.775 E1.08740 F600.000
G1 X101.463 Y105.725 E1.10666 F600.000
G1 X101.412 Y105.775 E1.10873 F600.000
G1 X100.744 Y105.725 E1.12799 F600.000
G1 X100.693 Y105.775 E1.13006 F600.000
G1 X100.025 Y105.725 E1.14933 F600.000
G1 X99.975 Y105.775 E1.15139 F600.000
G1 X99.307 Y105.725 E1.17066 F600.000
G1 X99.256 Y105.775 E1.17273 F600.000
G1 X98.588 Y105.725 E1.19199 F600.000
G1 X98.537 Y105.775 E1.19406 F600.000
G1 X97.869 Y105.725 E1.21332 F600.000
G1 X97.818 Y105.775 E1.21539 F600.000
G1 X97.150 Y105.725 E1.23466 F600.000
G1 X97.100 Y105.775 E1.23672 F600.000
G1 X96.432 Y105.725 E1.25599 F600.000
G1 X96.381 Y105.775 E1.25806 F600.000
G1 X95.713 Y105.725 E1.27732 F600.000
G1 X95.662 Y105.775 E1.27939 F600.000
G1 X94.994 Y105.725 E1.29865 F600.000
G1 X94.943 Y105.775 E1.30072 F600.000
G1 X94.275 Y105.725 E1.31999 F600.000
G1 X94.250 Y105.750 E1.32102 F600.000
