; generated by Slic3r 1.1.7 on 2014-11-05 at 21:36:27

; perimeters extrusion width = 0.55mm
; infill extrusion width = 0.55mm
; solid infill extrusion width = 0.55mm
; top infill extrusion width = 0.55mm
; support material extrusion width = 0.55mm

G21 ; set units to millimeters
M107
M190 S70 ; wait for bed temperature to be reached
G28 ; home all axes
G1 Z5 F5000 ; lift nozzle
G90 ; use absolute coordinates
G92 E0
M82 ; use absolute distances for extrusion
G1 F1800.000 E-1.50000
G92 E0
G1 Z0.350 F7800.000
G1 X69.017 Y73.761 F7800.000
G1 E1.50000 F1800.000
G1 X69.224 Y73.602 E1.50883 F1080.000
G1 X70.729 Y72.733 E1.56764
G1 X70.970 Y72.634 E1.57647
G1 X72.649 Y72.184 E1.63528
G1 X73.776 Y72.093 E1.67352
G1 X76.225 Y72.093 E1.75639
G1 X105.852 Y72.094 E2.75888 F1080.000
G1 X107.092 Y72.151 E2.80089
G1 X107.355 Y72.186 E2.80983
G1 X109.030 Y72.635 E2.86853
G1 X109.273 Y72.736 E2.87743
G1 X110.776 Y73.604 E2.93618
G1 X110.982 Y73.762 E2.94496
G1 X112.212 Y74.992 E3.00380
G1 X112.371 Y75.199 E3.01264
G1 X113.240 Y76.704 E3.07144
G1 X113.340 Y76.945 E3.08028
G1 X113.790 Y78.624 E3.13908
G1 X113.880 Y79.752 E3.17736
G1 X113.823 Y101.119 E3.90036
G1 X113.788 Y101.378 E3.90919
G1 X113.339 Y103.056 E3.96799
G1 X113.239 Y103.297 E3.97682
G1 X112.370 Y104.802 E4.03563
G1 X112.211 Y105.010 E4.04446
G1 X110.982 Y106.238 E4.10327
G1 X110.775 Y106.397 E4.11210
G1 X109.270 Y107.266 E4.17089
G1 X109.029 Y107.366 E4.17973
G1 X107.350 Y107.816 E4.23854
G1 X106.225 Y107.907 E4.27674
G1 X73.822 Y107.905 E5.37312
G1 X72.906 Y107.848 E5.40417
G1 X72.647 Y107.814 E5.41301
G1 X70.969 Y107.364 E5.47181
G1 X70.728 Y107.264 E5.48064
G1 X69.223 Y106.395 E5.53944
G1 X69.009 Y106.232 E5.54855
G1 X67.787 Y105.007 E5.60709
G1 X67.628 Y104.800 E5.61592
G1 X66.759 Y103.295 E5.67472
G1 X66.656 Y103.047 E5.68382
G1 X66.210 Y101.376 E5.74235
G1 X66.176 Y101.118 E5.75115
G1 X66.119 Y100.248 E5.78063
G1 X66.176 Y78.881 E6.50365
G1 X66.210 Y78.622 E6.51248
G1 X66.660 Y76.943 E6.57129
G1 X66.763 Y76.696 E6.58035
G1 X67.629 Y75.197 E6.63892
G1 X67.788 Y74.990 E6.64775
G1 X68.964 Y73.814 E6.70402
G1 F1800.000 E5.20402
G92 E0
G1 X104.677 Y84.905 F7800.000
G1 E1.50000 F1800.000
G1 X104.210 Y85.437 E1.52395 F378.000
G1 X104.099 Y85.648 E1.53200
G1 X104.021 Y85.956 E1.54275
G1 X103.992 Y86.419 E1.55846
G1 X103.992 Y88.731 E1.63669
G1 X102.724 Y88.731 E1.67959
G1 X102.724 Y86.132 E1.76753
G1 X102.708 Y85.575 E1.78638
G1 X102.606 Y84.908 E1.80922
G1 X102.125 Y85.451 E1.83378
G1 X102.013 Y85.666 E1.84198
G1 X101.935 Y85.973 E1.85269
G1 X101.906 Y86.421 E1.86789
G1 X101.906 Y88.731 E1.94604
G1 X100.638 Y88.731 E1.98894
G1 X100.638 Y87.718 E2.02320
G1 X100.031 Y88.433 E2.05493
G1 X99.686 Y88.664 E2.06900
G1 X99.286 Y88.801 E2.08331
G1 X98.848 Y88.845 E2.09820
G1 X98.405 Y88.800 E2.11327
G1 X98.000 Y88.659 E2.12776
G1 X97.648 Y88.422 E2.14213
G1 X97.362 Y88.100 E2.15671
G1 X97.144 Y87.723 E2.17143
G1 X96.885 Y87.020 E2.19677
G1 X96.439 Y87.780 E2.22658
G1 X96.223 Y88.052 E2.23831
G1 X95.967 Y88.292 E2.25020
G1 X95.653 Y88.490 E2.26276
G1 X95.281 Y88.627 E2.27617
G1 X94.865 Y88.706 E2.29052
G1 X94.412 Y88.730 E2.30585
G1 X92.657 Y88.730 E2.36523
G1 X92.657 Y85.334 E2.48017
G1 X92.182 Y85.287 E2.49631
G1 X91.509 Y88.730 E2.61501
G1 X90.313 Y88.730 E2.65549
G1 X89.802 Y86.371 E2.73718
G1 X89.378 Y86.370 E2.75150
G1 X88.858 Y88.730 E2.83327
G1 X87.661 Y88.730 E2.87376
G1 X87.013 Y85.325 E2.99105
G1 X86.536 Y85.370 E3.00724
G1 X86.536 Y88.730 E3.12093
G1 X85.219 Y88.730 E3.16549
G1 X85.219 Y86.165 E3.25228
G1 X83.742 Y86.165 E3.30226
G1 X83.742 Y88.730 E3.38906
G1 X82.426 Y88.730 E3.43361
G1 X82.426 Y88.272 E3.44911
G1 X82.049 Y88.161 E3.46241
G1 X81.942 Y88.325 E3.46904
G1 X81.559 Y88.650 E3.48603
G1 X81.069 Y88.843 E3.50385
G1 X80.487 Y88.902 E3.52365
G1 X79.933 Y88.859 E3.54243
G1 X79.451 Y88.723 E3.55940
G1 X79.043 Y88.462 E3.57578
G1 X78.747 Y88.076 E3.59224
G1 X78.415 Y87.212 E3.62356
G1 X77.976 Y87.978 E3.65344
G1 X77.624 Y88.375 E3.67141
G1 X77.212 Y88.667 E3.68849
G1 X76.746 Y88.845 E3.70536
G1 X76.239 Y88.903 E3.72264
G1 X75.731 Y88.845 E3.73992
G1 X75.265 Y88.667 E3.75678
G1 X74.854 Y88.375 E3.77385
G1 X74.502 Y87.978 E3.79180
G1 X74.222 Y87.488 E3.81090
G1 X74.027 Y86.919 E3.83126
G1 X73.913 Y86.276 E3.85334
G1 X73.876 Y85.560 E3.87760
G1 X73.913 Y84.844 E3.90187
G1 X74.027 Y84.202 E3.92393
G1 X74.222 Y83.633 E3.94428
G1 X74.503 Y83.144 E3.96336
G1 X74.855 Y82.747 E3.98130
G1 X75.266 Y82.456 E3.99835
G1 X75.732 Y82.279 E4.01521
G1 X76.239 Y82.221 E4.03248
G1 X76.746 Y82.279 E4.04975
G1 X77.212 Y82.456 E4.06661
G1 X77.623 Y82.747 E4.08367
G1 X77.976 Y83.144 E4.10162
G1 X78.573 Y84.183 E4.14220
G1 X78.775 Y83.386 E4.17004
G1 X78.921 Y83.069 E4.18185
G1 X79.130 Y82.777 E4.19397
G1 X79.410 Y82.529 E4.20663
G1 X79.755 Y82.354 E4.21973
G1 X80.147 Y82.254 E4.23341
G1 X80.833 Y82.204 E4.25671
G1 X80.833 Y82.107 E4.25999
G1 X81.629 Y82.456 E4.28937
G1 X81.876 Y82.653 E4.30008
G1 X82.071 Y82.904 E4.31082
G1 X82.426 Y82.782 E4.32353
G1 X82.426 Y82.391 E4.33678
G1 X83.743 Y82.391 E4.38134
G1 X83.743 Y84.902 E4.46629
G1 X85.220 Y84.902 E4.51627
G1 X85.220 Y82.391 E4.60122
G1 X87.756 Y82.391 E4.68703
G1 X88.153 Y84.484 E4.75910
G1 X88.582 Y84.490 E4.77362
G1 X89.040 Y82.391 E4.84630
G1 X90.216 Y82.391 E4.88609
G1 X90.659 Y84.475 E4.95818
G1 X91.088 Y84.472 E4.97271
G1 X91.495 Y82.391 E5.04443
G1 X94.325 Y82.391 E5.14019
G1 X94.797 Y82.412 E5.15618
G1 X95.222 Y82.476 E5.17074
G1 X95.597 Y82.590 E5.18398
G1 X95.912 Y82.758 E5.19608
G1 X96.172 Y82.975 E5.20751
G1 X96.392 Y83.232 E5.21898
G1 X96.579 Y83.530 E5.23086
G1 X96.734 Y83.865 E5.24337
G1 X96.855 Y84.237 E5.25660
G1 X97.053 Y85.178 E5.28915
G1 X97.388 Y84.617 E5.31126
G1 X97.676 Y84.293 E5.32594
G1 X98.017 Y84.052 E5.34008
G1 X98.404 Y83.905 E5.35408
G1 X98.828 Y83.857 E5.36850
G1 X99.291 Y83.919 E5.38431
G1 X99.720 Y84.113 E5.40026
G1 X100.082 Y84.442 E5.41681
G1 X100.251 Y84.728 E5.42806
G1 X100.639 Y84.623 E5.44165
G1 X100.639 Y83.972 E5.46367
G1 X102.034 Y83.972 E5.51089
G1 X102.627 Y83.853 E5.53135
G1 X103.151 Y83.954 E5.54941
G1 X103.413 Y84.097 E5.55952
G1 X103.675 Y84.330 E5.57136
G1 X104.190 Y83.964 E5.59273
G1 X104.702 Y83.854 E5.61046
G1 X105.094 Y83.912 E5.62388
G1 X105.440 Y84.080 E5.63689
G1 X105.724 Y84.347 E5.65007
G1 X105.929 Y84.700 E5.66389
G1 X106.044 Y85.184 E5.68071
G1 X106.077 Y85.836 E5.70280
G1 X106.077 Y88.731 E5.80076
G1 X104.806 Y88.731 E5.84377
G1 X104.806 Y86.130 E5.93178
G1 X104.789 Y85.575 E5.95056
G1 X104.689 Y84.979 E5.97101
G1 X104.471 Y85.361 F7800.000
G1 F1800.000 E4.47101
G92 E0
G1 X98.479 Y93.946 F7800.000
G1 E1.50000 F1800.000
G1 X99.142 Y93.946 E1.52242 F540.000
G1 X99.142 Y95.418 E1.57222
G1 X99.142 Y96.524 E1.60963
G1 X98.479 Y96.524 E1.63205
G1 X98.479 Y98.242 E1.69020
G1 X95.897 Y98.242 E1.77757
G1 X95.897 Y96.524 E1.83572
G1 X93.588 Y96.523 E1.91386
G1 X93.588 Y98.242 E1.97201
G1 X91.006 Y98.242 E2.05938
G1 X91.006 Y96.229 E2.12748
G1 X90.555 Y96.165 E2.14290
G1 X90.450 Y96.523 E2.15553
G1 X90.166 Y97.119 E2.17789
G1 X89.783 Y97.642 E2.19983
G1 X89.291 Y98.063 E2.22172
G1 X88.695 Y98.333 E2.24385
G1 X88.043 Y98.422 E2.26611
G1 X87.393 Y98.333 E2.28833
G1 X86.400 Y97.881 E2.32523
G1 X86.400 Y98.242 E2.33745
G1 X81.330 Y98.242 E2.50902
G1 X81.330 Y96.587 E2.56501
G1 X81.410 Y95.943 E2.58697
G1 X81.657 Y95.225 E2.61265
G1 X82.083 Y94.512 E2.64075
G1 X82.906 Y93.620 E2.68182
G1 X81.286 Y93.620 E2.73663
G1 X81.524 Y91.995 E2.79218
G1 X81.768 Y91.469 E2.81181
G1 X82.133 Y91.031 E2.83111
G1 X82.607 Y90.690 E2.85087
G1 X83.183 Y90.479 E2.87162
G1 X83.796 Y90.418 E2.89247
G1 X84.338 Y90.455 E2.91085
G1 X84.844 Y90.577 E2.92847
G1 X85.324 Y90.813 E2.94655
G1 X85.713 Y91.158 E2.96416
G1 X86.016 Y91.589 E2.98197
G1 X86.308 Y91.190 E2.99868
G1 X86.799 Y90.771 E3.02054
G1 X87.394 Y90.501 E3.04263
G1 X88.044 Y90.412 E3.06483
G1 X88.695 Y90.501 E3.08706
G1 X89.290 Y90.771 E3.10918
G1 X89.782 Y91.190 E3.13106
G1 X90.035 Y91.534 E3.14549
G1 X91.755 Y90.589 E3.21191
G1 X93.588 Y90.589 E3.27394
G1 X93.588 Y94.033 E3.39048
G1 X93.960 Y94.147 E3.40363
G1 X96.370 Y90.589 E3.54906
G1 X98.480 Y90.589 E3.62042
G1 X98.479 Y93.871 E3.73148
G1 X97.822 Y94.603 F7800.000
G1 X98.485 Y94.603 E3.75390 F378.000
G1 X98.485 Y95.418 E3.78147
G1 X98.485 Y95.867 E3.79664
G1 X97.822 Y95.867 E3.81906
G1 X97.822 Y97.585 E3.87722
G1 X96.554 Y97.585 E3.92012
G1 X96.554 Y95.867 E3.97827
G1 X94.280 Y95.866 E4.05524
G1 X94.280 Y95.052 E4.08281
G1 X94.280 Y94.846 E4.08977
G1 X96.719 Y91.246 E4.23690
G1 X97.822 Y91.246 E4.27424
G1 X97.822 Y94.528 E4.38530
G1 X97.822 Y95.103 F7800.000
G1 F1800.000 E2.88530
G92 E0
G1 X91.663 Y92.850 F7800.000
G1 E1.50000 F1800.000
G1 X90.704 Y93.304 E1.53590 F378.000
G1 X90.704 Y91.916 E1.58289
G1 X91.923 Y91.246 E1.62995
G1 X92.931 Y91.246 E1.66404
G1 X92.931 Y97.585 E1.87854
G1 X91.663 Y97.585 E1.92144
G1 X91.663 Y92.925 E2.07911
G1 X91.518 Y92.372 F7800.000
G1 F1800.000 E0.57911
G92 E0
G1 X86.103 Y93.069 F7800.000
G1 E1.50000 F1800.000
G1 X86.257 Y92.544 E1.51851 F378.000
G1 X86.492 Y92.051 E1.53699
G1 X86.793 Y91.640 E1.55421
G1 X87.155 Y91.331 E1.57034
G1 X87.578 Y91.139 E1.58605
G1 X88.044 Y91.075 E1.60196
G1 X88.511 Y91.139 E1.61791
G1 X88.934 Y91.331 E1.63364
G1 X89.298 Y91.640 E1.64979
G1 X89.599 Y92.051 E1.66703
G1 X89.834 Y92.544 E1.68550
G1 X89.998 Y93.103 E1.70521
G1 X90.094 Y93.726 E1.72656
G1 X90.125 Y94.415 E1.74989
G1 X90.094 Y95.104 E1.77323
G1 X89.998 Y95.728 E1.79459
G1 X89.834 Y96.288 E1.81431
G1 X89.599 Y96.781 E1.83281
G1 X89.298 Y97.193 E1.85006
G1 X88.934 Y97.503 E1.86622
G1 X88.511 Y97.695 E1.88197
G1 X88.044 Y97.759 E1.89793
G1 X87.577 Y97.695 E1.91385
G1 X87.155 Y97.502 E1.92956
G1 X86.792 Y97.192 E1.94571
G1 X86.492 Y96.781 E1.96295
G1 X86.256 Y96.288 E1.98144
G1 X86.093 Y95.728 E2.00117
G1 X85.997 Y95.104 E2.02252
G1 X85.965 Y94.415 E2.04586
G1 X85.997 Y93.726 E2.06920
G1 X86.029 Y93.514 E2.07645
G1 X85.603 Y93.377 E2.09161
G1 X85.328 Y93.916 E2.11210
G1 X85.028 Y94.287 E2.12825
G1 X84.487 Y94.808 E2.15365
G1 X84.252 Y94.999 E2.16389
G1 X83.803 Y95.416 E2.18464
G1 X83.502 Y95.802 E2.20118
G1 X83.284 Y96.263 E2.21846
G1 X85.743 Y96.263 E2.30170
G1 X85.743 Y97.585 E2.34641
G1 X81.987 Y97.585 E2.47351
G1 X81.987 Y96.628 E2.50588
G1 X82.054 Y96.092 E2.52416
G1 X82.256 Y95.504 E2.54520
G1 X82.613 Y94.908 E2.56869
G1 X83.128 Y94.349 E2.59442
G1 X83.959 Y93.554 E2.63335
G1 X84.207 Y93.241 E2.64683
G1 X84.299 Y93.030 E2.65463
G1 X84.328 Y92.825 E2.66165
G1 X84.293 Y92.642 E2.66793
G1 X84.197 Y92.492 E2.67396
G1 X84.042 Y92.387 E2.68032
G1 X83.788 Y92.345 E2.68901
G1 X83.566 Y92.375 E2.69659
G1 X83.408 Y92.464 E2.70274
G1 X83.297 Y92.963 E2.72004
G1 X82.046 Y92.963 E2.76237
G1 X82.160 Y92.186 E2.78895
G1 X82.328 Y91.824 E2.80243
G1 X82.585 Y91.516 E2.81600
G1 X82.918 Y91.276 E2.82991
G1 X83.331 Y91.124 E2.84480
G1 X83.807 Y91.077 E2.86096
G1 X84.238 Y91.107 E2.87559
G1 X84.620 Y91.199 E2.88887
G1 X84.954 Y91.363 E2.90149
G1 X85.220 Y91.599 E2.91351
G1 X85.411 Y91.871 E2.92477
G1 X85.545 Y92.162 E2.93561
G1 X85.624 Y92.475 E2.94653
G1 X85.667 Y93.024 E2.96514
G1 X86.028 Y93.061 E2.97742
G1 X85.955 Y92.591 F7800.000
G1 F1800.000 E1.47742
G92 E0
G1 X80.526 Y94.277 F7800.000
G1 E1.50000 F1800.000
G1 X81.459 Y94.277 E1.53156 F540.000
G1 X81.058 Y94.947 E1.55797
G1 X80.767 Y95.794 E1.58827
G1 X80.673 Y96.546 E1.61394
G1 X80.673 Y98.899 E1.69353
G1 X87.050 Y98.899 E1.90932
G1 X87.208 Y98.971 E1.91519
G1 X88.043 Y99.085 E1.94371
G1 X88.879 Y98.971 E1.97226
G1 X89.647 Y98.622 E2.00079
G1 X90.349 Y98.023 E2.03201
G1 X90.349 Y98.899 E2.06164
G1 X94.245 Y98.899 E2.19348
G1 X94.245 Y97.181 E2.25163
G1 X95.240 Y97.181 E2.28530
G1 X95.240 Y98.899 E2.34346
G1 X99.136 Y98.899 E2.47529
G1 X99.136 Y97.181 E2.53344
G1 X99.799 Y97.181 E2.55586
G1 X99.799 Y95.418 E2.61550
G1 X99.799 Y93.289 E2.68754
G1 X99.137 Y93.289 E2.70996
G1 X99.137 Y90.137 E2.81663
G1 X99.568 Y90.094 E2.83129
G1 X99.710 Y90.045 E2.83639
G1 X105.559 Y90.045 E3.03428
G1 X105.558 Y99.585 E3.35709
G1 X74.440 Y99.584 E4.41003
G1 X74.440 Y89.759 E4.74248
G1 X75.418 Y90.131 E4.77787
G1 X76.238 Y90.225 E4.80582
G1 X77.059 Y90.131 E4.83377
G1 X77.835 Y89.836 E4.86188
G1 X78.270 Y89.528 E4.87989
G1 X78.907 Y89.935 E4.90547
G1 X79.702 Y90.159 E4.93340
G1 X80.503 Y90.221 E4.96060
G1 X81.382 Y90.132 E4.99049
G1 X81.578 Y90.055 E4.99761
G1 X81.816 Y90.386 E5.01142
G1 X81.208 Y91.115 E5.04354
G1 X80.887 Y91.805 E5.06932
G1 X80.537 Y94.203 E5.15130
G1 F1800.000 E3.65130
G92 E0
G1 X88.044 Y96.484 F7800.000
G1 E1.50000 F1800.000
G1 X87.885 Y96.458 E1.50543 F540.000
G1 X87.755 Y96.382 E1.51053
G1 X87.627 Y96.232 E1.51720
G1 X87.503 Y95.975 E1.52687
G1 X87.399 Y95.635 E1.53891
G1 X87.322 Y95.265 E1.55169
G1 X87.259 Y94.415 E1.58051
G1 X87.323 Y93.568 E1.60926
G1 X87.399 Y93.198 E1.62204
G1 X87.504 Y92.857 E1.63411
G1 X87.628 Y92.599 E1.64380
G1 X87.756 Y92.448 E1.65049
G1 X87.886 Y92.373 E1.65559
G1 X88.044 Y92.346 E1.66101
G1 X88.204 Y92.373 E1.66648
G1 X88.335 Y92.449 E1.67161
G1 X88.463 Y92.599 E1.67831
G1 X88.587 Y92.857 E1.68799
G1 X88.692 Y93.198 E1.70006
G1 X88.768 Y93.568 E1.71284
G1 X88.832 Y94.415 E1.74159
G1 X88.768 Y95.265 E1.77041
G1 X88.692 Y95.635 E1.78318
G1 X88.587 Y95.975 E1.79523
G1 X88.463 Y96.232 E1.80489
G1 X88.335 Y96.382 E1.81156
G1 X88.204 Y96.458 E1.81669
G1 X88.118 Y96.472 E1.81964
G1 F1800.000 E0.31964
G92 E0
G1 X90.208 Y90.689 F7800.000
G1 E1.50000 F1800.000
G1 X89.451 Y90.044 E1.53365 F540.000
G1 X90.561 Y90.044 E1.57122
G1 X90.662 Y90.439 E1.58502
G1 X90.273 Y90.653 E1.60002
G1 X94.245 Y90.056 F7800.000
G1 X95.023 Y90.013 E1.62637 F540.000
G1 X96.105 Y89.809 E1.66364
G1 X94.617 Y92.006 E1.75342
G1 X94.245 Y91.892 E1.76657
G1 X94.245 Y90.131 E1.82616
G1 X96.778 Y88.432 F7800.000
G1 X97.213 Y88.920 E1.84828 F540.000
G1 X97.704 Y89.251 E1.86832
G1 X98.261 Y89.446 E1.88829
G1 X98.847 Y89.505 E1.90822
G1 X99.427 Y89.447 E1.92794
G1 X99.981 Y89.258 E1.94777
G1 X99.981 Y89.388 E1.95217
G1 X106.216 Y89.388 E2.16313
G1 X106.215 Y100.242 E2.53041
G1 X73.783 Y100.241 E3.62782
G1 X73.783 Y88.157 E4.03671
G1 X74.412 Y88.867 E4.06881
G1 X74.953 Y89.251 E4.09126
G1 X75.574 Y89.488 E4.11375
G1 X76.238 Y89.564 E4.13637
G1 X76.903 Y89.488 E4.15898
G1 X77.524 Y89.252 E4.18147
G1 X78.065 Y88.868 E4.20392
G1 X78.312 Y88.590 E4.21652
G1 X78.592 Y88.954 E4.23206
G1 X79.179 Y89.329 E4.25563
G1 X79.818 Y89.509 E4.27808
G1 X80.495 Y89.562 E4.30107
G1 X81.225 Y89.487 E4.32592
G1 X81.480 Y89.387 E4.33518
G1 X94.430 Y89.388 E4.77336
G1 X94.944 Y89.359 E4.79076
G1 X95.457 Y89.263 E4.80845
G1 X95.945 Y89.082 E4.82605
G1 X96.370 Y88.814 E4.84306
G1 X96.723 Y88.484 E4.85941
G1 F1800.000 E3.35941
G92 E0
G1 X79.807 Y86.762 F7800.000
G1 E1.50000 F1800.000
G1 X78.481 Y86.762 E1.54489 F540.000
G1 X78.567 Y86.277 E1.56156
G1 X78.604 Y85.560 E1.58583
G1 X78.591 Y85.304 E1.59451
G1 X78.941 Y85.165 E1.60726
G1 X79.261 Y85.540 E1.62395
G1 X79.623 Y85.822 E1.63946
G1 X80.728 Y86.420 E1.68196
G1 X80.957 Y86.601 E1.69186
G1 X81.063 Y86.762 E1.69836
G1 X81.101 Y86.983 E1.70597
G1 X81.090 Y87.126 E1.71081
G1 X81.056 Y87.257 E1.71540
G1 X81.002 Y87.365 E1.71948
G1 X80.939 Y87.445 E1.72295
G1 X80.737 Y87.584 E1.73121
G1 X80.490 Y87.630 E1.73971
G1 X80.178 Y87.596 E1.75034
G1 X79.902 Y87.478 E1.76052
G1 X79.851 Y87.302 E1.76673
G1 X79.813 Y86.836 E1.78251
G1 F1800.000 E0.28251
G92 E0
G1 X81.021 Y84.050 F7800.000
G1 E1.50000 F1800.000
G1 X82.426 Y84.050 E1.54754 F540.000
G1 X82.426 Y86.059 E1.61553
G1 X81.725 Y85.401 E1.64809
G1 X81.103 Y85.006 E1.67302
G1 X80.807 Y84.854 E1.68426
G1 X80.237 Y84.519 E1.70662
G1 X80.134 Y84.422 E1.71142
G1 X80.055 Y84.303 E1.71625
G1 X80.006 Y84.168 E1.72112
G1 X79.990 Y84.032 E1.72572
G1 X80.027 Y83.815 E1.73317
G1 X80.176 Y83.552 E1.74340
G1 X80.533 Y83.491 E1.75566
G1 X80.936 Y83.550 E1.76945
G1 X81.008 Y83.976 E1.78406
G1 F1800.000 E0.28406
G92 E0
G1 X76.439 Y84.435 F7800.000
G1 E1.50000 F1800.000
G1 X76.534 Y84.781 E1.51212 F540.000
G1 X76.586 Y85.135 E1.52424
G1 X76.605 Y85.560 E1.53863
G1 X76.586 Y85.987 E1.55308
G1 X76.534 Y86.342 E1.56523
G1 X76.439 Y86.687 E1.57734
G1 X76.039 Y86.687 E1.59089
