; generated by Slic3r 1.0.1 on 2014-08-12 at 18:46:50

; layer_height = 0.3
; perimeters = 2
; top_solid_layers = 3
; bottom_solid_layers = 3
; fill_density = 0.3
; perimeter_speed = 30
; infill_speed = 60
; travel_speed = 130
; nozzle_diameter = 0.5
; filament_diameter = 3
; extrusion_multiplier = 1.04
; perimeters extrusion width = 0.66mm
; infill extrusion width = 0.66mm
; solid infill extrusion width = 0.66mm
; top infill extrusion width = 0.66mm
; first layer extrusion width = 0.70mm

G21 ; set units to millimeters
M107
M190 S100 ; wait for bed temperature to be reached
G28 ; home all axes
G1 Z5 F5000 ; lift nozzle
G90 ; use absolute coordinates
G92 E0
M82 ; use absolute distances for extrusion
G1 F1800.000 E-1.50000
G92 E0
G1 Z0.350 F7800.000
G1 X76.430 Y45.670 F7800.000
G1 E1.50000 F1800.000
G1 X76.910 Y44.960 E1.52900 F540.000
G1 X78.340 Y43.090 E1.60865
G1 X78.920 Y42.430 E1.63838
G1 X79.570 Y41.850 E1.66786
G1 X81.430 Y40.420 E1.74725
G1 X82.160 Y39.930 E1.77700
G1 X82.950 Y39.550 E1.80666
G1 X85.130 Y38.650 E1.88646
G1 X85.960 Y38.370 E1.91610
G1 X86.820 Y38.200 E1.94576
G1 X89.080 Y37.900 E2.02291
G1 X90.000 Y37.840 E2.05410
G1 X90.840 Y37.900 E2.08260
G1 X93.170 Y38.200 E2.16209
G1 X94.030 Y38.370 E2.19175
G1 X94.860 Y38.650 E2.22139
G1 X97.040 Y39.550 E2.30119
G1 X97.830 Y39.930 E2.33085
G1 X98.560 Y40.420 E2.36060
G1 X100.420 Y41.850 E2.43999
G1 X101.070 Y42.430 E2.46947
G1 X101.650 Y43.090 E2.49920
G1 X103.080 Y44.960 E2.57885
G1 X103.560 Y45.670 E2.60785
G1 X103.940 Y46.450 E2.63721
G1 X104.840 Y48.620 E2.71670
G1 X105.070 Y49.280 E2.74035
G1 X114.170 Y80.050 E3.82608
G1 X114.390 Y81.050 E3.86072
G1 X114.600 Y82.600 E3.91365
G1 X114.660 Y83.490 E3.94383
G1 X114.600 Y84.380 E3.97402
G1 X114.390 Y85.940 E4.02728
G1 X114.260 Y86.630 E4.05103
G1 X103.230 Y131.890 E5.62730
G1 X102.910 Y132.860 E5.66186
G1 X102.210 Y134.550 E5.72376
G1 X101.810 Y135.350 E5.75402
G1 X101.310 Y136.090 E5.78424
G1 X100.190 Y137.530 E5.84597
G1 X99.650 Y138.150 E5.87379
G1 X99.030 Y138.690 E5.90161
G1 X97.590 Y139.810 E5.96334
G1 X96.850 Y140.310 E5.99356
G1 X96.050 Y140.710 E6.02382
G1 X94.360 Y141.410 E6.08572
G1 X93.540 Y141.690 E6.11503
G1 X92.690 Y141.860 E6.14436
G1 X90.880 Y142.100 E6.20615
G1 X90.000 Y142.160 E6.23599
G1 X89.130 Y142.100 E6.26550
G1 X87.310 Y141.860 E6.32761
G1 X86.460 Y141.690 E6.35694
G1 X85.630 Y141.410 E6.38658
G1 X83.940 Y140.710 E6.44848
G1 X83.140 Y140.310 E6.47874
G1 X82.400 Y139.810 E6.50896
G1 X80.960 Y138.690 E6.57069
G1 X80.340 Y138.150 E6.59851
G1 X79.800 Y137.530 E6.62633
G1 X78.680 Y136.090 E6.68806
G1 X78.180 Y135.350 E6.71828
G1 X77.780 Y134.550 E6.74854
G1 X77.080 Y132.860 E6.81044
G1 X76.760 Y131.890 E6.84500
G1 X65.730 Y86.630 E8.42126
G1 X65.600 Y85.900 E8.44635
G1 X65.400 Y84.340 E8.49957
G1 X65.340 Y83.490 E8.52840
G1 X65.400 Y82.640 E8.55724
G1 X65.600 Y81.090 E8.61012
G1 X65.820 Y80.050 E8.64609
G1 X74.920 Y49.280 E9.73182
G1 X75.150 Y48.620 E9.75547
G1 X76.050 Y46.450 E9.83496
G1 X76.387 Y45.759 E9.86098
G1 F1800.000 E8.36098
G92 E0
G1 X90.000 Y110.337 F7800.000
G1 E1.50000 F1800.000
G1 X94.471 Y112.919 E1.67470 F540.000
G1 X94.471 Y118.081 E1.84939
G1 X90.000 Y120.663 E2.02409
G1 X85.529 Y118.081 E2.19878
G1 X85.529 Y112.919 E2.37348
G1 X89.915 Y110.386 E2.54483
G1 X90.000 Y111.096 F7800.000
G1 X93.814 Y113.298 E2.69386 F540.000
G1 X93.814 Y117.702 E2.84288
G1 X90.000 Y119.904 E2.99190
G1 X86.186 Y117.702 E3.14092
G1 X86.186 Y113.298 E3.28994
G1 X89.915 Y111.145 E3.43563
G1 X90.422 Y110.592 F7800.000
G1 F1800.000 E1.93563
G92 E0
G1 X92.581 Y124.029 F7800.000
G1 E1.50000 F1800.000
G1 X95.163 Y128.500 E1.67469 F540.000
G1 X92.581 Y132.971 E1.84939
G1 X87.419 Y132.971 E2.02408
G1 X84.837 Y128.500 E2.19878
G1 X87.419 Y124.029 E2.37347
G1 X92.483 Y124.029 E2.54483
G1 X92.202 Y124.686 F7800.000
G1 X94.404 Y128.500 E2.69385 F540.000
G1 X92.202 Y132.314 E2.84287
G1 X87.798 Y132.314 E2.99189
G1 X85.596 Y128.500 E3.14092
G1 X87.798 Y124.686 E3.28994
G1 X92.104 Y124.686 E3.43562
G1 X92.820 Y124.461 F7800.000
G1 X95.993 Y128.434 F7800.000
G1 X95.780 Y130.049 E3.49073 F540.000
G1 X95.182 Y131.492 E3.54360
G1 X94.231 Y132.731 E3.59645
G1 X92.992 Y133.683 E3.64931
G1 X91.549 Y134.280 E3.70217
G1 X90.000 Y134.484 E3.75503
G1 X88.451 Y134.280 E3.80789
G1 X87.008 Y133.683 E3.86075
G1 X85.769 Y132.731 E3.91361
G1 X84.817 Y131.492 E3.96647
G1 X84.220 Y130.049 E4.01933
G1 X84.007 Y128.434 E4.07444
G1 X84.007 Y115.566 E4.50985
G1 X84.220 Y113.951 E4.56496
G1 X84.817 Y112.508 E4.61782
G1 X85.769 Y111.269 E4.67068
G1 X87.008 Y110.317 E4.72354
G1 X88.451 Y109.720 E4.77640
G1 X90.000 Y109.516 E4.82926
G1 X91.549 Y109.720 E4.88212
G1 X92.992 Y110.317 E4.93498
G1 X94.231 Y111.269 E4.98784
G1 X95.182 Y112.508 E5.04070
G1 X95.780 Y113.951 E5.09356
G1 X95.993 Y115.566 E5.14867
G1 X95.993 Y128.335 E5.58074
G1 X96.650 Y128.477 F7800.000
G1 X96.420 Y130.220 E5.64024 F378.000
G1 X95.756 Y131.823 E5.69896
G1 X94.700 Y133.200 E5.75767
G1 X93.323 Y134.256 E5.81638
G1 X91.720 Y134.921 E5.87510
G1 X90.000 Y135.147 E5.93381
G1 X88.280 Y134.921 E5.99252
G1 X86.677 Y134.256 E6.05124
G1 X85.300 Y133.200 E6.10995
G1 X84.244 Y131.823 E6.16866
G1 X83.580 Y130.220 E6.22738
G1 X83.350 Y128.477 E6.28688
G1 X83.350 Y114.950 E6.74458
G1 X83.425 Y114.950 E6.74714
G1 X83.580 Y113.780 E6.78708
G1 X84.244 Y112.177 E6.84579
G1 X85.300 Y110.800 E6.90451
G1 X86.677 Y109.744 E6.96322
G1 X88.280 Y109.079 E7.02193
G1 X90.000 Y108.853 E7.08065
G1 X91.720 Y109.079 E7.13936
G1 X93.323 Y109.744 E7.19807
G1 X94.700 Y110.800 E7.25679
G1 X95.756 Y112.177 E7.31550
G1 X96.420 Y113.780 E7.37422
G1 X96.575 Y114.950 E7.41416
G1 X96.650 Y114.950 E7.41671
G1 X96.650 Y128.378 E7.87109
G1 X96.054 Y128.755 F7800.000
G1 F1800.000 E6.37109
G92 E0
G1 X101.927 Y86.843 F7800.000
G1 E1.50000 F1800.000
G1 X101.132 Y86.739 E1.52713 F540.000
G1 X100.323 Y86.404 E1.55675
G1 X99.629 Y85.871 E1.58637
G1 X99.096 Y85.177 E1.61598
G1 X98.761 Y84.368 E1.64560
G1 X98.647 Y83.500 E1.67522
G1 X98.761 Y82.632 E1.70484
G1 X99.068 Y81.891 E1.73197
G1 X99.096 Y81.823 E1.73446
G1 X99.629 Y81.129 E1.76407
G1 X100.323 Y80.596 E1.79369
G1 X101.064 Y80.289 E1.82082
G1 X101.132 Y80.261 E1.82331
G1 X102.000 Y80.147 E1.85293
G1 X102.868 Y80.261 E1.88254
G1 X103.677 Y80.596 E1.91216
G1 X104.371 Y81.129 E1.94178
G1 X104.904 Y81.823 E1.97140
G1 X105.239 Y82.632 E2.00101
G1 X105.353 Y83.500 E2.03063
G1 X105.239 Y84.368 E2.06025
G1 X104.904 Y85.177 E2.08987
G1 X104.371 Y85.871 E2.11949
G1 X103.677 Y86.404 E2.14910
G1 X102.868 Y86.739 E2.17872
G1 X102.025 Y86.850 E2.20749
G1 X101.570 Y87.395 F7800.000
G1 F1800.000 E0.70749
G92 E0
G1 X81.239 Y84.368 F7800.000
G1 E1.50000 F1800.000
G1 X80.904 Y85.177 E1.52962 F540.000
G1 X80.371 Y85.871 E1.55924
G1 X79.677 Y86.404 E1.58885
G1 X78.868 Y86.739 E1.61847
G1 X78.000 Y86.853 E1.64809
G1 X77.132 Y86.739 E1.67771
G1 X76.323 Y86.404 E1.70732
G1 X75.629 Y85.871 E1.73694
G1 X75.096 Y85.177 E1.76656
G1 X74.761 Y84.368 E1.79618
G1 X74.647 Y83.500 E1.82579
G1 X74.761 Y82.632 E1.85541
G1 X75.096 Y81.823 E1.88503
G1 X75.629 Y81.129 E1.91465
G1 X76.323 Y80.596 E1.94427
G1 X77.132 Y80.261 E1.97388
G1 X78.000 Y80.147 E2.00350
G1 X78.868 Y80.261 E2.03312
G1 X79.677 Y80.596 E2.06274
G1 X80.371 Y81.129 E2.09235
G1 X80.904 Y81.823 E2.12197
G1 X81.239 Y82.632 E2.15159
G1 X81.353 Y83.500 E2.18121
G1 X81.252 Y84.270 E2.20749
G1 X81.683 Y84.852 F7800.000
G1 X82.400 Y93.850 F7800.000
G1 X82.400 Y53.150 E3.58464 F378.000
G1 X82.697 Y53.150 E3.59468
G1 X82.944 Y51.428 E3.65354
G1 X83.814 Y49.524 E3.72436
G1 X85.184 Y47.943 E3.79518
G1 X86.945 Y46.811 E3.86600
G1 X88.953 Y46.221 E3.93682
G1 X91.047 Y46.221 E4.00765
G1 X93.055 Y46.811 E4.07847
G1 X94.816 Y47.943 E4.14929
G1 X96.186 Y49.524 E4.22011
G1 X97.056 Y51.428 E4.29093
G1 X97.303 Y53.150 E4.34979
G1 X97.600 Y53.150 E4.35983
G1 X97.600 Y93.850 E5.73698
G1 X97.303 Y93.850 E5.74702
G1 X97.056 Y95.572 E5.80588
G1 X96.186 Y97.476 E5.87670
G1 X94.816 Y99.057 E5.94752
G1 X93.055 Y100.189 E6.01834
G1 X91.047 Y100.779 E6.08916
G1 X88.953 Y100.779 E6.15999
G1 X86.945 Y100.189 E6.23081
G1 X85.184 Y99.057 E6.30163
G1 X83.814 Y97.476 E6.37245
G1 X82.944 Y95.572 E6.44327
G1 X82.697 Y93.850 E6.50213
G1 X82.499 Y93.850 E6.50883
G1 X81.743 Y93.850 F7800.000
G1 F1800.000 E5.00883
G92 E0
G1 X98.257 Y87.298 F7800.000
G1 E1.50000 F1800.000
G1 X98.257 Y85.424 E1.56343 F540.000
G1 X98.416 Y85.370 E1.56912
G1 X99.160 Y86.340 E1.61048
G1 X99.992 Y86.978 E1.64595
G1 X100.961 Y87.379 E1.68142
G1 X102.000 Y87.516 E1.71689
G1 X103.039 Y87.379 E1.75236
G1 X104.008 Y86.978 E1.78784
G1 X104.840 Y86.340 E1.82331
G1 X105.478 Y85.508 E1.85878
G1 X105.879 Y84.539 E1.89425
G1 X106.016 Y83.500 E1.92972
G1 X105.879 Y82.461 E1.96519
G1 X105.478 Y81.492 E2.00067
G1 X104.840 Y80.660 E2.03614
G1 X104.008 Y80.022 E2.07161
G1 X103.039 Y79.621 E2.10708
G1 X102.000 Y79.484 E2.14255
G1 X100.961 Y79.621 E2.17803
G1 X99.992 Y80.022 E2.21350
G1 X99.160 Y80.660 E2.24897
G1 X98.416 Y81.630 E2.29033
G1 X98.257 Y81.576 E2.29602
G1 X98.257 Y79.702 E2.35945
G1 X100.710 Y78.686 E2.44928
G1 X102.000 Y78.516 E2.49331
G1 X103.290 Y78.686 E2.53733
G1 X104.492 Y79.184 E2.58136
G1 X105.524 Y79.976 E2.62539
G1 X106.317 Y81.008 E2.66941
G1 X106.814 Y82.210 E2.71344
G1 X106.984 Y83.500 E2.75747
G1 X106.814 Y84.790 E2.80149
G1 X106.317 Y85.992 E2.84552
G1 X105.524 Y87.024 E2.88955
G1 X104.492 Y87.816 E2.93357
G1 X103.290 Y88.314 E2.97760
G1 X102.000 Y88.484 E3.02163
G1 X100.710 Y88.314 E3.06565
G1 X98.348 Y87.336 E3.15215
G1 F1800.000 E1.65215
G92 E0
G1 X81.743 Y87.298 F7800.000
G1 E1.50000 F1800.000
G1 X79.290 Y88.314 E1.58984 F540.000
G1 X78.000 Y88.484 E1.63386
G1 X76.710 Y88.314 E1.67789
G1 X75.508 Y87.816 E1.72192
G1 X74.476 Y87.024 E1.76594
G1 X73.683 Y85.992 E1.80997
G1 X73.186 Y84.790 E1.85399
G1 X73.016 Y83.500 E1.89802
G1 X73.186 Y82.210 E1.94205
G1 X73.683 Y81.008 E1.98607
G1 X74.476 Y79.976 E2.03010
G1 X75.508 Y79.184 E2.07413
G1 X76.710 Y78.686 E2.11815
G1 X78.000 Y78.516 E2.16218
G1 X79.290 Y78.686 E2.20621
G1 X81.743 Y79.702 E2.29604
G1 X81.743 Y81.576 E2.35947
G1 X81.584 Y81.630 E2.36516
G1 X80.840 Y80.660 E2.40652
G1 X80.008 Y80.022 E2.44199
G1 X79.039 Y79.621 E2.47746
G1 X78.000 Y79.484 E2.51293
G1 X76.961 Y79.621 E2.54841
G1 X75.992 Y80.022 E2.58388
G1 X75.160 Y80.660 E2.61935
G1 X74.522 Y81.492 E2.65482
G1 X74.121 Y82.461 E2.69029
G1 X73.984 Y83.500 E2.72577
G1 X74.121 Y84.539 E2.76124
G1 X74.522 Y85.508 E2.79671
G1 X75.160 Y86.340 E2.83218
G1 X75.992 Y86.978 E2.86765
G1 X76.961 Y87.379 E2.90312
G1 X78.000 Y87.516 E2.93860
G1 X79.039 Y87.379 E2.97407
G1 X80.008 Y86.978 E3.00954
G1 X80.840 Y86.340 E3.04501
G1 X81.584 Y85.370 E3.08637
G1 X81.743 Y85.424 E3.09206
G1 X81.743 Y87.200 E3.15215
G1 X81.350 Y88.172 F7800.000
G1 X79.462 Y88.955 E3.22132 F378.000
G1 X78.000 Y89.147 E3.27120
G1 X76.538 Y88.955 E3.32108
G1 X75.177 Y88.390 E3.37096
G1 X74.007 Y87.493 E3.42084
G1 X73.110 Y86.323 E3.47072
G1 X72.545 Y84.962 E3.52060
G1 X72.353 Y83.500 E3.57048
G1 X72.545 Y82.038 E3.62036
G1 X73.110 Y80.677 E3.67024
G1 X74.007 Y79.507 E3.72012
G1 X75.177 Y78.610 E3.77000
G1 X76.538 Y78.045 E3.81988
G1 X78.000 Y77.853 E3.86976
G1 X79.462 Y78.045 E3.91964
G1 X81.350 Y78.828 E3.98881
G1 X81.350 Y53.523 E4.84503
G1 X81.648 Y51.262 E4.92220
G1 X82.511 Y49.177 E4.99858
G1 X83.886 Y47.386 E5.07496
G1 X85.677 Y46.012 E5.15134
G1 X87.762 Y45.148 E5.22772
G1 X90.000 Y44.853 E5.30410
G1 X92.238 Y45.148 E5.38048
G1 X94.323 Y46.012 E5.45686
G1 X96.114 Y47.386 E5.53324
G1 X97.489 Y49.177 E5.60962
G1 X98.352 Y51.262 E5.68600
G1 X98.650 Y53.523 E5.76316
G1 X98.650 Y78.828 E6.61939
G1 X100.538 Y78.045 E6.68855
G1 X102.000 Y77.853 E6.73843
G1 X103.462 Y78.045 E6.78831
G1 X104.823 Y78.610 E6.83819
G1 X105.993 Y79.507 E6.88807
G1 X106.890 Y80.677 E6.93795
G1 X107.455 Y82.038 E6.98783
G1 X107.647 Y83.500 E7.03771
G1 X107.455 Y84.962 E7.08759
G1 X106.890 Y86.323 E7.13747
G1 X105.993 Y87.493 E7.18736
G1 X104.823 Y88.390 E7.23724
G1 X103.462 Y88.955 E7.28712
G1 X102.000 Y89.147 E7.33700
G1 X100.538 Y88.955 E7.38688
G1 X98.650 Y88.172 E7.45604
G1 X98.650 Y93.477 E7.63553
G1 X98.352 Y95.738 E7.71270
G1 X97.489 Y97.823 E7.78908
G1 X96.114 Y99.614 E7.86546
G1 X94.323 Y100.988 E7.94184
G1 X92.238 Y101.852 E8.01822
G1 X90.000 Y102.147 E8.09460
G1 X87.762 Y101.852 E8.17098
G1 X85.677 Y100.988 E8.24736
G1 X83.886 Y99.614 E8.32373
G1 X82.511 Y97.823 E8.40012
G1 X81.648 Y95.738 E8.47649
G1 X81.350 Y93.477 E8.55366
G1 X81.350 Y88.271 E8.72982
G1 X81.180 Y87.538 F7800.000
G1 F1800.000 E7.22982
G92 E0
G1 X95.527 Y118.417 F7800.000
G1 E1.50000 F1800.000
G1 X95.509 Y118.400 E1.50087 F1080.000
G1 X94.893 Y118.756 E1.52605
G1 X95.527 Y119.389 E1.55776
G1 X95.527 Y120.361 E1.59216
G1 X94.036 Y118.871 E1.66676
G1 X93.420 Y119.227 E1.69194
G1 X95.527 Y121.333 E1.79738
G1 X95.527 Y122.305 E1.83178
G1 X92.804 Y119.583 E1.96806
G1 X92.188 Y119.938 E1.99324
G1 X95.527 Y123.277 E2.16037
G1 X95.527 Y124.249 E2.19477
G1 X91.571 Y120.294 E2.39274
G1 X90.955 Y120.650 E2.41792
G1 X95.527 Y125.221 E2.64674
G1 X94.117 Y125.756 E2.70009
G1 X95.256 Y126.894 E2.75709
G1 X95.527 Y126.193 E2.78369
G1 X90.339 Y121.006 E3.04335
G1 X88.965 Y120.604 E3.09401
G1 X91.924 Y123.562 E3.24209
G1 X90.952 Y123.562 E3.27649
G1 X86.665 Y119.276 E3.49103
G1 X85.263 Y118.846 E3.54295
G1 X89.980 Y123.562 E3.77902
G1 X89.008 Y123.562 E3.81342
G1 X84.473 Y119.028 E4.04038
G1 X84.473 Y120.000 E4.07478
G1 X88.036 Y123.562 E4.25309
G1 X87.118 Y123.617 E4.28563
G1 X84.473 Y120.972 E4.41800
G1 X84.473 Y121.944 E4.45240
G1 X86.762 Y124.233 E4.56696
G1 X86.406 Y124.849 E4.59215
G1 X84.473 Y122.916 E4.68890
G1 X84.473 Y123.888 E4.72330
G1 X86.051 Y125.465 E4.80225
G1 X85.695 Y126.082 E4.82743
G1 X84.473 Y124.860 E4.88857
G1 X84.473 Y125.832 E4.92297
G1 X85.339 Y126.698 E4.96630
G1 X84.473 Y126.804 E4.99717
G1 X84.498 Y126.828 E4.99838
G1 X84.831 Y127.535 F7800.000
G1 X84.852 Y127.556 E4.99894 F360.000
G1 X84.831 Y127.535 F7800.000
G1 X84.466 Y127.674 E5.00612 F360.000
G1 X84.668 Y127.876 E5.01137 F360.000
G1 X84.466 Y128.179 E5.01806 F360.000
G1 X84.476 Y128.189 E5.01832 F360.000
G1 X84.545 Y129.004 F7800.000
G1 X84.564 Y129.023 E5.01877 F360.000
G1 X86.056 Y132.008 F7800.000
G1 X86.110 Y132.062 E5.02137 F360.000
G1 X86.831 Y132.956 F7800.000
G1 X86.886 Y133.011 E5.02266 F360.000
G1 X87.646 Y133.440 F7800.000
G1 X87.665 Y133.458 E5.02310 F360.000
G1 X88.860 Y133.650 F7800.000
G1 X89.990 Y133.640 E5.07004 F360.000
G1 X90.142 Y133.791 E5.07894 F360.000
G1 X91.130 Y133.640 E5.12048 F360.000
G1 X91.140 Y133.650 E5.12107 F360.000
G1 X92.265 Y133.461 F7800.000
G1 X92.283 Y133.480 E5.12151 F360.000
G1 X93.094 Y133.001 F7800.000
G1 X93.108 Y133.015 E5.12185 F360.000
G1 X93.890 Y132.062 F7800.000
G1 X93.882 Y132.055 E5.12224 F360.000
G1 X94.348 Y131.482 E5.15015 F360.000
G1 X94.262 Y131.397 E5.15471 F360.000
G1 X94.733 Y130.829 E5.18258 F360.000
G1 X94.643 Y130.738 E5.18745 F360.000
G1 X95.038 Y130.095 E5.21599 F360.000
G1 X95.030 Y130.087 E5.21640 F360.000
G1 X95.436 Y129.023 F7800.000
G1 X95.407 Y128.994 E5.21709 F360.000
G1 X95.524 Y128.189 F7800.000
G1 X95.497 Y128.162 E5.21813 F360.000
G1 X95.534 Y127.460 E5.23703 F360.000
G1 X95.516 Y127.442 E5.23773 F360.000
G1 F1800.000 E3.73773
G92 E0
G1 X88.871 Y133.661 F7800.000
G1 E1.50000 F1800.000
G1 X88.860 Y133.650 E1.50068 F360.000
G1 F1800.000 E0.00068
G92 E0
G1 X84.713 Y117.597 F7800.000
G1 E1.50000 F1800.000
G1 X84.676 Y117.560 E1.50216 F360.000
G1 X84.860 Y116.620 E1.54141 F360.000
G1 X84.676 Y116.435 E1.55211 F360.000
G1 X84.860 Y115.495 E1.59136 F360.000
G1 X84.710 Y115.345 E1.60003 F360.000
G1 X84.860 Y114.370 E1.64045 F360.000
G1 X84.850 Y114.360 E1.64102 F360.000
G1 X85.038 Y113.235 F7800.000
G1 X85.020 Y113.217 E1.64146 F360.000
G1 X85.499 Y112.406 F7800.000
G1 X85.485 Y112.392 E1.64181 F360.000
G1 X86.438 Y111.610 F7800.000
G1 X87.018 Y111.152 E1.66976 F360.000
G1 X87.103 Y111.237 E1.67432 F360.000
G1 X87.671 Y110.767 E1.70220 F360.000
G1 X87.762 Y110.857 E1.70706 F360.000
G1 X88.405 Y110.462 E1.73561 F360.000
G1 X88.413 Y110.470 E1.73602 F360.000
G1 X89.477 Y110.064 F7800.000
