; generated by Slic3r 1.0.1 on 2014-08-13 at 08:37:42

; layer_height = 0.3
; perimeters = 2
; top_solid_layers = 3
; bottom_solid_layers = 3
; fill_density = 0.2
; perimeter_speed = 30
; infill_speed = 60
; travel_speed = 130
; nozzle_diameter = 0.5
; filament_diameter = 3
; extrusion_multiplier = 1.04
; perimeters extrusion width = 0.66mm
; infill extrusion width = 0.66mm
; solid infill extrusion width = 0.66mm
; top infill extrusion width = 0.66mm
; first layer extrusion width = 0.70mm

G21 ; set units to millimeters
M107
M190 S100 ; wait for bed temperature to be reached
G28 ; home all axes
G1 Z5 F5000 ; lift nozzle
G90 ; use absolute coordinates
G92 E0
M82 ; use absolute distances for extrusion
G1 F1800.000 E-1.50000
G92 E0
G1 Z0.350 F7800.000
G1 X76.430 Y52.170 F7800.000
G1 E1.50000 F1800.000
G1 X76.910 Y51.460 E1.52900 F540.000
G1 X78.340 Y49.590 E1.60865
G1 X78.920 Y48.920 E1.63864
G1 X79.590 Y48.340 E1.66862
G1 X81.460 Y46.910 E1.74828
G1 X82.170 Y46.430 E1.77728
G1 X82.950 Y46.050 E1.80664
G1 X85.120 Y45.150 E1.88613
G1 X85.940 Y44.870 E1.91545
G1 X86.790 Y44.700 E1.94478
G1 X89.050 Y44.400 E2.02192
G1 X89.930 Y44.340 E2.05176
G1 X90.840 Y44.400 E2.08262
G1 X93.170 Y44.700 E2.16211
G1 X94.040 Y44.870 E2.19211
G1 X94.870 Y45.150 E2.22174
G1 X97.040 Y46.050 E2.30124
G1 X97.820 Y46.430 E2.33059
G1 X98.530 Y46.910 E2.35959
G1 X100.400 Y48.340 E2.43925
G1 X101.070 Y48.920 E2.46923
G1 X101.650 Y49.590 E2.49922
G1 X103.080 Y51.460 E2.57887
G1 X103.560 Y52.170 E2.60787
G1 X103.940 Y52.950 E2.63723
G1 X104.840 Y55.120 E2.71672
G1 X105.080 Y55.800 E2.74112
G1 X105.240 Y56.500 E2.76542
G1 X114.390 Y107.550 E4.52030
G1 X114.600 Y109.100 E4.57323
G1 X114.660 Y109.990 E4.60341
G1 X114.600 Y110.880 E4.63359
G1 X114.390 Y112.440 E4.68686
G1 X114.220 Y113.280 E4.71585
G1 X113.940 Y114.100 E4.74517
G1 X113.340 Y115.550 E4.79827
G1 X112.960 Y116.330 E4.82763
G1 X112.470 Y117.050 E4.85710
G1 X111.400 Y118.450 E4.91672
G1 X101.520 Y130.570 E5.44582
G1 X100.990 Y131.140 E5.47215
G1 X100.400 Y131.650 E5.49854
G1 X98.530 Y133.080 E5.57820
G1 X97.820 Y133.560 E5.60719
G1 X97.040 Y133.940 E5.63655
G1 X94.870 Y134.840 E5.71604
G1 X94.040 Y135.120 E5.74568
G1 X93.170 Y135.290 E5.77568
G1 X90.840 Y135.590 E5.85517
G1 X89.990 Y135.650 E5.88400
G1 X89.140 Y135.590 E5.91283
G1 X86.820 Y135.290 E5.99199
G1 X85.960 Y135.120 E6.02165
G1 X85.130 Y134.840 E6.05129
G1 X82.950 Y133.940 E6.13109
G1 X82.160 Y133.560 E6.16075
G1 X81.430 Y133.070 E6.19050
G1 X79.570 Y131.640 E6.26989
G1 X78.990 Y131.130 E6.29602
G1 X78.470 Y130.570 E6.32188
G1 X68.590 Y118.450 E6.85098
G1 X67.520 Y117.050 E6.91060
G1 X67.030 Y116.330 E6.94007
G1 X66.650 Y115.550 E6.96943
G1 X66.050 Y114.100 E7.02252
G1 X65.770 Y113.260 E7.05248
G1 X65.600 Y112.400 E7.08215
G1 X65.400 Y110.840 E7.13536
G1 X65.340 Y109.990 E7.16420
G1 X65.400 Y109.140 E7.19303
G1 X65.650 Y107.270 E7.25687
G1 X74.750 Y56.500 E9.00213
G1 X74.910 Y55.800 E9.02643
G1 X75.150 Y55.120 E9.05082
G1 X76.050 Y52.950 E9.13032
G1 X76.387 Y52.259 E9.15634
G1 F1800.000 E7.65634
G92 E0
G1 X99.992 Y106.522 F7800.000
G1 E1.50000 F1800.000
G1 X100.961 Y106.121 E1.53547 F540.000
G1 X102.000 Y105.984 E1.57094
G1 X103.039 Y106.121 E1.60642
G1 X104.008 Y106.522 E1.64189
G1 X104.840 Y107.160 E1.67736
G1 X105.478 Y107.992 E1.71283
G1 X105.879 Y108.961 E1.74830
G1 X106.016 Y110.000 E1.78378
G1 X105.879 Y111.039 E1.81925
G1 X105.478 Y112.008 E1.85472
G1 X104.840 Y112.840 E1.89019
G1 X104.008 Y113.478 E1.92566
G1 X103.039 Y113.879 E1.96113
G1 X102.000 Y114.016 E1.99661
G1 X100.961 Y113.879 E2.03208
G1 X99.992 Y113.478 E2.06755
G1 X99.160 Y112.840 E2.10302
G1 X98.522 Y112.008 E2.13849
G1 X98.121 Y111.039 E2.17396
G1 X98.101 Y110.885 E2.17922
G1 X97.984 Y110.000 E2.20944
G1 X98.121 Y108.961 E2.24491
G1 X98.522 Y107.992 E2.28038
G1 X99.160 Y107.160 E2.31585
G1 X99.914 Y106.582 E2.34799
G1 X100.323 Y107.096 F7800.000
G1 X101.132 Y106.761 E2.37761 F540.000
G1 X102.000 Y106.647 E2.40723
G1 X102.868 Y106.761 E2.43684
G1 X103.677 Y107.096 E2.46646
G1 X104.371 Y107.629 E2.49608
G1 X104.904 Y108.323 E2.52570
G1 X105.239 Y109.132 E2.55531
G1 X105.353 Y110.000 E2.58493
G1 X105.239 Y110.868 E2.61455
G1 X104.904 Y111.677 E2.64417
G1 X104.371 Y112.371 E2.67379
G1 X103.677 Y112.904 E2.70340
G1 X102.868 Y113.239 E2.73302
G1 X102.800 Y113.248 E2.73535
G1 X102.000 Y113.353 E2.76264
G1 X101.132 Y113.239 E2.79226
G1 X100.323 Y112.904 E2.82187
G1 X99.629 Y112.371 E2.85149
G1 X99.096 Y111.677 E2.88111
G1 X98.761 Y110.868 E2.91073
G1 X98.752 Y110.800 E2.91306
G1 X98.647 Y110.000 E2.94034
G1 X98.761 Y109.132 E2.96996
G1 X99.096 Y108.323 E2.99958
G1 X99.629 Y107.629 E3.02920
G1 X100.245 Y107.156 E3.05548
G1 X100.352 Y106.440 F7800.000
G1 F1800.000 E1.55548
G92 E0
G1 X81.879 Y108.961 F7800.000
G1 E1.50000 F1800.000
G1 X82.016 Y110.000 E1.53547 F540.000
G1 X81.879 Y111.039 E1.57095
G1 X81.478 Y112.008 E1.60642
G1 X80.840 Y112.840 E1.64189
G1 X80.008 Y113.478 E1.67736
G1 X79.039 Y113.879 E1.71283
G1 X78.000 Y114.016 E1.74830
G1 X76.961 Y113.879 E1.78378
G1 X75.992 Y113.478 E1.81925
G1 X75.160 Y112.840 E1.85472
G1 X74.522 Y112.008 E1.89019
G1 X74.121 Y111.039 E1.92566
G1 X73.984 Y110.000 E1.96114
G1 X74.101 Y109.115 E1.99135
G1 X74.121 Y108.961 E1.99661
G1 X74.522 Y107.992 E2.03208
G1 X75.160 Y107.160 E2.06755
G1 X75.869 Y106.617 E2.09776
G1 X75.992 Y106.522 E2.10302
G1 X76.961 Y106.121 E2.13849
G1 X78.000 Y105.984 E2.17397
G1 X78.885 Y106.101 E2.20418
G1 X79.039 Y106.121 E2.20944
G1 X80.008 Y106.522 E2.24491
G1 X80.840 Y107.160 E2.28038
G1 X81.478 Y107.992 E2.31585
G1 X81.841 Y108.870 E2.34799
G1 X81.239 Y109.132 F7800.000
G1 X81.353 Y110.000 E2.37761 F540.000
G1 X81.239 Y110.868 E2.40723
G1 X80.904 Y111.677 E2.43684
G1 X80.371 Y112.371 E2.46646
G1 X79.677 Y112.904 E2.49608
G1 X78.868 Y113.239 E2.52570
G1 X78.000 Y113.353 E2.55531
G1 X77.132 Y113.239 E2.58493
G1 X76.323 Y112.904 E2.61455
G1 X75.629 Y112.371 E2.64417
G1 X75.096 Y111.677 E2.67379
G1 X74.761 Y110.868 E2.70340
G1 X74.647 Y110.000 E2.73302
G1 X74.752 Y109.201 E2.76031
G1 X74.761 Y109.132 E2.76264
G1 X75.096 Y108.323 E2.79226
G1 X75.629 Y107.629 E2.82187
G1 X76.269 Y107.138 E2.84916
G1 X76.323 Y107.096 E2.85149
G1 X77.132 Y106.761 E2.88111
G1 X78.000 Y106.647 E2.91073
G1 X78.800 Y106.752 E2.93801
G1 X78.868 Y106.761 E2.94035
G1 X79.677 Y107.096 E2.96996
G1 X80.371 Y107.629 E2.99958
G1 X80.904 Y108.323 E3.02920
G1 X81.201 Y109.041 E3.05548
G1 X81.865 Y109.330 F7800.000
G1 X83.400 Y120.023 F7800.000
G1 X83.400 Y59.977 E5.08723 F378.000
G1 X83.622 Y58.291 E5.14477
G1 X84.282 Y56.698 E5.20310
G1 X85.922 Y54.561 E5.29426
G1 X85.922 Y54.878 E5.30497
G1 X86.698 Y54.282 E5.33810
G1 X88.735 Y53.438 E5.41270
G1 X88.735 Y53.563 E5.41695
G1 X90.000 Y53.397 E5.46011
G1 X91.709 Y53.622 E5.51843
G1 X93.302 Y54.282 E5.57676
G1 X94.669 Y55.331 E5.63508
G1 X95.718 Y56.698 E5.69341
G1 X96.378 Y58.291 E5.75173
G1 X96.600 Y59.977 E5.80928
G1 X96.600 Y120.023 E7.84103
G1 X96.378 Y121.709 E7.89857
G1 X95.718 Y123.302 E7.95689
G1 X94.669 Y124.669 E8.01522
G1 X93.302 Y125.718 E8.07355
G1 X91.709 Y126.378 E8.13187
G1 X90.000 Y126.603 E8.19020
G1 X88.291 Y126.378 E8.24852
G1 X86.698 Y125.718 E8.30685
G1 X85.922 Y125.122 E8.33997
G1 X85.922 Y125.439 E8.35069
G1 X84.282 Y123.302 E8.44185
G1 X83.622 Y121.709 E8.50017
G1 X83.413 Y120.121 E8.55438
G1 X82.817 Y119.720 F7800.000
G1 F1800.000 E7.05438
G92 E0
G1 X86.579 Y126.380 F7800.000
G1 E1.50000 F1800.000
G1 X88.119 Y127.018 E1.55642 F540.000
G1 X90.000 Y127.266 E1.62060
G1 X91.881 Y127.018 E1.68478
G1 X93.633 Y126.292 E1.74896
G1 X95.138 Y125.138 E1.81314
G1 X96.292 Y123.633 E1.87732
G1 X97.018 Y121.881 E1.94150
G1 X97.257 Y120.066 E2.00343
G1 X97.257 Y59.934 E4.03809
G1 X97.018 Y58.119 E4.10002
G1 X96.292 Y56.367 E4.16420
G1 X95.138 Y54.862 E4.22838
G1 X93.633 Y53.708 E4.29256
G1 X91.881 Y52.982 E4.35674
G1 X90.000 Y52.734 E4.42092
G1 X89.393 Y52.814 E4.44165
G1 X89.393 Y52.096 E4.46596
G1 X90.000 Y52.016 E4.48669
G1 X92.066 Y52.288 E4.55722
G1 X93.992 Y53.085 E4.62774
G1 X95.646 Y54.354 E4.69827
G1 X96.915 Y56.008 E4.76880
G1 X97.712 Y57.934 E4.83932
G1 X97.993 Y60.066 E4.91210
G1 X97.993 Y106.311 E6.47688
G1 X100.710 Y105.186 E6.57639
G1 X102.000 Y105.016 E6.62041
G1 X103.290 Y105.186 E6.66444
G1 X104.492 Y105.684 E6.70847
G1 X105.524 Y106.476 E6.75249
G1 X106.317 Y107.508 E6.79652
G1 X106.814 Y108.710 E6.84054
G1 X106.984 Y110.000 E6.88457
G1 X106.814 Y111.290 E6.92860
G1 X106.317 Y112.492 E6.97262
G1 X105.524 Y113.524 E7.01665
G1 X104.492 Y114.316 E7.06068
G1 X103.290 Y114.814 E7.10470
G1 X102.000 Y114.984 E7.14873
G1 X100.710 Y114.814 E7.19276
G1 X97.993 Y113.689 E7.29227
G1 X97.993 Y119.934 E7.50358
G1 X97.712 Y122.066 E7.57636
G1 X96.915 Y123.992 E7.64688
G1 X95.646 Y125.646 E7.71741
G1 X93.992 Y126.915 E7.78793
G1 X92.066 Y127.712 E7.85846
G1 X90.000 Y127.984 E7.92898
G1 X87.934 Y127.712 E7.99951
G1 X86.579 Y127.151 E8.04913
G1 X86.579 Y126.479 E8.07188
G1 F1800.000 E6.57188
G92 E0
G1 X86.579 Y53.620 F7800.000
G1 E1.50000 F1800.000
G1 X86.579 Y52.849 E1.52609 F540.000
G1 X87.934 Y52.288 E1.57570
G1 X89.045 Y52.142 E1.61364
G1 X89.155 Y52.553 E1.62805
G1 X86.670 Y53.582 E1.71907
G1 X85.545 Y53.973 F7800.000
G1 X83.708 Y56.367 E1.82119 F540.000
G1 X82.982 Y58.119 E1.88537
G1 X82.743 Y59.934 E1.94729
G1 X82.743 Y120.066 E3.98196
G1 X82.982 Y121.881 E4.04388
G1 X83.708 Y123.633 E4.10806
G1 X85.545 Y126.027 E4.21018
G1 X85.244 Y126.328 E4.22459
G1 X84.354 Y125.646 E4.26252
G1 X83.085 Y123.992 E4.33305
G1 X82.288 Y122.066 E4.40357
G1 X82.007 Y119.934 E4.47635
G1 X82.007 Y113.689 E4.68766
G1 X79.290 Y114.814 E4.78717
G1 X78.000 Y114.984 E4.83120
G1 X76.710 Y114.814 E4.87523
G1 X75.508 Y114.316 E4.91925
G1 X74.476 Y113.524 E4.96328
G1 X73.683 Y112.492 E5.00731
G1 X73.186 Y111.290 E5.05133
G1 X73.016 Y110.000 E5.09536
G1 X73.186 Y108.710 E5.13939
G1 X73.683 Y107.508 E5.18341
G1 X74.476 Y106.476 E5.22744
G1 X75.508 Y105.684 E5.27147
G1 X76.710 Y105.186 E5.31549
G1 X78.000 Y105.016 E5.35952
G1 X79.290 Y105.186 E5.40354
G1 X82.007 Y106.311 E5.50305
G1 X82.007 Y60.066 E7.06783
G1 X82.288 Y57.934 E7.14061
G1 X83.085 Y56.008 E7.21113
G1 X84.354 Y54.354 E7.28166
G1 X85.244 Y53.672 E7.31960
G1 X85.475 Y53.903 E7.33067
G1 X85.677 Y52.512 F7800.000
G1 X87.762 Y51.648 E7.40705 F378.000
G1 X90.000 Y51.353 E7.48343
G1 X92.238 Y51.648 E7.55981
G1 X94.323 Y52.512 E7.63619
G1 X96.114 Y53.886 E7.71257
G1 X97.489 Y55.677 E7.78895
G1 X98.352 Y57.762 E7.86533
G1 X98.650 Y60.023 E7.94249
G1 X98.650 Y105.328 E9.47545
G1 X100.538 Y104.545 E9.54461
G1 X102.000 Y104.353 E9.59449
G1 X103.462 Y104.545 E9.64437
G1 X104.823 Y105.110 E9.69426
G1 X105.993 Y106.007 E9.74413
G1 X106.890 Y107.177 E9.79402
G1 X107.455 Y108.538 E9.84390
G1 X107.647 Y110.000 E9.89378
G1 X107.455 Y111.462 E9.94366
G1 X106.890 Y112.823 E9.99354
G1 X105.993 Y113.993 E10.04342
G1 X104.823 Y114.890 E10.09330
G1 X103.462 Y115.455 E10.14318
G1 X102.000 Y115.647 E10.19306
G1 X100.538 Y115.455 E10.24294
G1 X98.650 Y114.672 E10.31211
G1 X98.650 Y119.977 E10.49160
G1 X98.352 Y122.238 E10.56876
G1 X97.489 Y124.323 E10.64514
G1 X96.114 Y126.114 E10.72152
G1 X94.323 Y127.488 E10.79790
G1 X92.238 Y128.352 E10.87428
G1 X90.000 Y128.647 E10.95066
G1 X87.762 Y128.352 E11.02704
G1 X85.677 Y127.488 E11.10342
G1 X83.886 Y126.114 E11.17980
G1 X82.511 Y124.323 E11.25618
G1 X81.648 Y122.238 E11.33256
G1 X81.350 Y119.977 E11.40972
G1 X81.350 Y114.672 E11.58922
G1 X79.462 Y115.455 E11.65838
G1 X78.000 Y115.647 E11.70826
G1 X76.538 Y115.455 E11.75814
G1 X75.177 Y114.890 E11.80802
G1 X74.007 Y113.993 E11.85790
G1 X73.110 Y112.823 E11.90778
G1 X72.545 Y111.462 E11.95766
G1 X72.353 Y110.000 E12.00754
G1 X72.545 Y108.538 E12.05742
G1 X73.110 Y107.177 E12.10730
G1 X74.007 Y106.007 E12.15719
G1 X75.177 Y105.110 E12.20707
G1 X76.538 Y104.545 E12.25695
G1 X78.000 Y104.353 E12.30683
G1 X79.462 Y104.545 E12.35671
G1 X81.350 Y105.328 E12.42587
G1 X81.350 Y60.023 E13.95883
G1 X81.648 Y57.762 E14.03599
G1 X82.511 Y55.677 E14.11237
G1 X83.886 Y53.886 E14.18875
G1 X85.598 Y52.572 E14.26180
G1 X86.231 Y52.865 F7800.000
G1 X85.802 Y53.270 F7800.000
G1 X85.900 Y53.369 E14.26650 F360.000
G1 F1800.000 E12.76650
G92 E0
G1 X79.027 Y105.614 F7800.000
G1 E1.50000 F1800.000
G1 X79.077 Y105.664 E1.50122 F360.000
G1 X79.764 Y105.878 E1.51357 F360.000
G1 X79.843 Y105.958 E1.51550 F360.000
G1 X80.569 Y106.212 F7800.000
G1 X80.595 Y106.237 E1.51612 F360.000
G1 X79.027 Y105.614 F7800.000
G1 X78.534 Y105.592 E1.52461 F360.000
G1 X78.484 Y105.542 E1.52582 F360.000
G1 X77.993 Y105.523 E1.53426 F360.000
G1 X77.955 Y105.484 E1.53520 F360.000
G1 X77.576 Y105.578 E1.54189 F360.000
G1 X77.538 Y105.539 E1.54283 F360.000
G1 X77.159 Y105.632 E1.54952 F360.000
G1 X77.121 Y105.594 E1.55046 F360.000
G1 X76.762 Y105.707 E1.55692 F360.000
G1 X76.729 Y105.674 E1.55772 F360.000
G1 X76.428 Y105.845 E1.56366 F360.000
G1 X76.395 Y105.812 E1.56446 F360.000
G1 X76.095 Y105.983 E1.57041 F360.000
G1 X76.062 Y105.950 E1.57121 F360.000
G1 X75.761 Y106.122 E1.57715 F360.000
G1 X75.730 Y106.091 E1.57790 F360.000
G1 X75.494 Y106.326 E1.58363 F360.000
G1 X75.463 Y106.296 E1.58437 F360.000
G1 X75.227 Y106.531 E1.59010 F360.000
G1 X75.197 Y106.500 E1.59085 F360.000
G1 X74.960 Y106.736 E1.59658 F360.000
G1 X74.930 Y106.705 E1.59733 F360.000
G1 X74.695 Y106.943 E1.60306 F360.000
G1 X74.726 Y106.973 E1.60381 F360.000
G1 X74.490 Y107.210 E1.60954 F360.000
G1 X74.521 Y107.240 E1.61028 F360.000
G1 X74.286 Y107.477 E1.61601 F360.000
G1 X74.316 Y107.507 E1.61676 F360.000
G1 X74.082 Y107.745 E1.62249 F360.000
G1 X74.115 Y107.778 E1.62329 F360.000
G1 X73.944 Y108.078 E1.62924 F360.000
G1 X73.977 Y108.111 E1.63004 F360.000
G1 X73.805 Y108.412 E1.63598 F360.000
G1 X73.838 Y108.445 E1.63678 F360.000
G1 X73.667 Y108.745 E1.64272 F360.000
G1 X73.700 Y108.778 E1.64353 F360.000
G1 X73.591 Y109.141 E1.65003 F360.000
G1 X73.630 Y109.180 E1.65097 F360.000
G1 X73.536 Y109.558 E1.65766 F360.000
G1 X73.575 Y109.596 E1.65860 F360.000
G1 X73.482 Y109.975 E1.66529 F360.000
G1 X73.524 Y110.017 E1.66632 F360.000
G1 X73.545 Y110.511 E1.67480 F360.000
G1 X73.596 Y110.561 E1.67602 F360.000
G1 X73.617 Y111.054 E1.68450 F360.000
G1 X73.667 Y111.104 E1.68572 F360.000
G1 X73.894 Y111.803 E1.69835 F360.000
G1 X73.974 Y111.883 E1.70028 F360.000
G1 X74.756 Y113.136 F7800.000
G1 X74.864 Y113.244 E1.70291 F360.000
G1 X76.117 Y114.026 F7800.000
G1 X76.197 Y114.106 E1.70485 F360.000
G1 X76.896 Y114.333 E1.71748 F360.000
G1 X76.946 Y114.383 E1.71869 F360.000
G1 X77.439 Y114.404 E1.72717 F360.000
G1 X77.489 Y114.455 E1.72839 F360.000
G1 X77.983 Y114.476 E1.73687 F360.000
G1 X78.025 Y114.518 E1.73790 F360.000
G1 X78.404 Y114.425 E1.74460 F360.000
G1 X78.442 Y114.464 E1.74553 F360.000
G1 X78.820 Y114.370 E1.75223 F360.000
G1 X78.859 Y114.409 E1.75316 F360.000
G1 X79.222 Y114.300 E1.75967 F360.000
G1 X79.255 Y114.333 E1.76047 F360.000
G1 X79.555 Y114.162 E1.76641 F360.000
G1 X79.588 Y114.195 E1.76721 F360.000
G1 X79.889 Y114.023 E1.77316 F360.000
G1 X79.922 Y114.056 E1.77396 F360.000
G1 X80.222 Y113.885 E1.77990 F360.000
G1 X80.255 Y113.918 E1.78070 F360.000
G1 X80.583 Y113.774 E1.78685 F360.000
G1 X80.493 Y113.684 E1.78905 F360.000
G1 X81.413 Y113.191 F7800.000
G1 X82.074 Y112.368 E1.84608 F360.000
G1 X82.064 Y112.358 E1.84684 F360.000
G1 X82.254 Y111.414 F7800.000
G1 X82.230 Y111.390 E1.84740 F360.000
G1 X81.413 Y113.191 F7800.000
G1 X81.428 Y113.205 E1.84853 F360.000
G1 X82.274 Y108.691 F7800.000
G1 X82.256 Y108.672 E1.84897 F360.000
G1 X82.064 Y107.642 F7800.000
G1 X82.010 Y107.588 E1.85157 F360.000
G1 F1800.000 E0.35157
G92 E0
G1 X97.716 Y108.681 F7800.000
G1 E1.50000 F1800.000
G1 X97.726 Y108.691 E1.50024 F360.000
G1 X97.936 Y107.642 F7800.000
G1 X97.926 Y107.632 E1.50100 F360.000
G1 X98.587 Y106.809 E1.55803 F360.000
G1 X98.572 Y106.795 E1.55916 F360.000
G1 X99.417 Y106.226 F7800.000
G1 X99.507 Y106.316 E1.56136 F360.000
G1 X99.745 Y106.082 E1.56709 F360.000
G1 X99.778 Y106.115 E1.56789 F360.000
G1 X100.078 Y105.944 E1.57383 F360.000
G1 X100.111 Y105.977 E1.57464 F360.000
G1 X100.412 Y105.805 E1.58058 F360.000
