; generated by Slic3r 1.1.7 on 2014-12-06 at 19:49:58

; perimeters extrusion width = 0.44mm
; infill extrusion width = 0.44mm
; solid infill extrusion width = 0.44mm
; top infill extrusion width = 0.44mm

G21 ; set units to millimeters
M107
M190 S70 ; wait for bed temperature to be reached
G28 ; home all axes
G1 Z5 F5000 ; lift nozzle
G90 ; use absolute coordinates
G92 E0
M82 ; use absolute distances for extrusion
G1 F1800.000 E-1.50000
G92 E0
G1 Z0.350 F7800.000
G1 X73.723 Y62.850 F7800.000
G1 E1.50000 F1800.000
G1 X75.477 Y61.363 E1.57779 F1080.000
G1 X77.631 Y60.562 E1.65558
G1 X78.839 Y60.452 E1.69662
G1 X101.023 Y60.452 E2.44725
G1 X103.288 Y60.849 E2.52504
G1 X105.282 Y61.992 E2.60283 F1080.000
G1 X106.769 Y63.746 E2.68063
G1 X107.570 Y65.901 E2.75842
G1 X107.680 Y67.071 E2.79818
G1 X107.817 Y91.230 E3.61564
G1 X107.817 Y112.890 E4.34855
G1 X107.420 Y115.155 E4.42635
G1 X106.276 Y117.149 E4.50414
G1 X104.522 Y118.635 E4.58193
G1 X102.367 Y119.437 E4.65972
G1 X101.160 Y119.547 E4.70076
G1 X79.499 Y119.547 E5.43367
G1 X77.235 Y119.150 E5.51147
G1 X75.240 Y118.007 E5.58926
G1 X73.754 Y116.253 E5.66705
G1 X72.845 Y113.076 E5.77885
G1 X72.182 Y89.293 E6.58391
G1 X72.182 Y67.109 E7.33454
G1 X72.579 Y64.844 E7.41233
G1 X73.685 Y62.915 E7.48759
G1 F1800.000 E5.98759
G92 E0
G1 X99.534 Y111.232 F7800.000
G1 E1.50000 F1800.000
G1 X90.338 Y111.260 E1.81116 F540.000
G1 X82.838 Y111.238 E2.06492
G1 X81.157 Y111.264 E2.12182
G1 X81.130 Y102.068 E2.43298
G1 X81.151 Y94.569 E2.68675
G1 X81.125 Y92.887 E2.74364
G1 X82.834 Y92.876 E2.80148
G1 X90.321 Y92.860 E3.05481
G1 X97.821 Y92.881 E3.30857
G1 X99.502 Y92.855 E3.36547
G1 X99.529 Y102.051 E3.67663
G1 X99.508 Y109.551 E3.93040
G1 X99.533 Y111.157 E3.98475
G1 X98.867 Y110.576 F7800.000
G1 X90.338 Y110.602 E4.27332 F378.000
G1 X83.055 Y110.578 E4.51979
G1 X81.814 Y110.597 E4.56178
G1 X81.787 Y102.069 E4.85035
G1 X81.811 Y94.785 E5.09681
G1 X81.792 Y93.544 E5.13881
G1 X83.056 Y93.533 E5.18158
G1 X90.321 Y93.517 E5.42738
G1 X97.604 Y93.542 E5.67385
G1 X98.845 Y93.523 E5.71584
G1 X98.871 Y101.012 E5.96925
G1 X98.847 Y109.335 E6.25087
G1 X98.866 Y110.501 E6.29033
G1 X98.870 Y111.076 F7800.000
G1 X100.153 Y111.883 F7800.000
G1 X80.506 Y111.883 E6.95510 F540.000
G1 X80.506 Y92.237 E7.61986
G1 X100.153 Y92.237 E8.28463
G1 X100.153 Y111.808 E8.94685
G1 X100.810 Y112.540 F7800.000
G1 X79.849 Y112.540 E9.65608 F378.000
G1 X79.849 Y92.200 E10.34431
G1 X79.849 Y91.580 E10.36531
G1 X100.810 Y91.580 E11.07454
G1 X100.810 Y112.465 E11.78124
G1 X100.377 Y112.290 F7800.000
G1 F1800.000 E10.28124
G92 E0
G1 X99.359 Y87.629 F7800.000
G1 E1.50000 F1800.000
G1 X80.503 Y87.629 E2.13801 F540.000
G1 X80.503 Y68.773 E2.77603
G1 X99.359 Y68.773 E3.41404
G1 X99.359 Y87.554 E4.04951
G1 X100.016 Y88.286 F7800.000
G1 X79.846 Y88.286 E4.73199 F540.000
G1 X79.846 Y68.116 E5.41447
G1 X100.016 Y68.116 E6.09695
G1 X100.016 Y88.211 E6.77689
G1 X100.673 Y88.943 F7800.000
G1 X79.189 Y88.943 E7.50384 F378.000
G1 X79.189 Y67.459 E8.23078
G1 X100.673 Y67.459 E8.95773
G1 X100.673 Y88.868 E9.68214
G1 X100.240 Y88.693 F7800.000
G1 X81.000 Y87.172 F7800.000
G1 X80.960 Y87.132 E9.68405 F1080.000
G1 X80.960 Y86.190 E9.71594
G1 X81.942 Y87.172 E9.76294
G1 X82.884 Y87.172 E9.79482
G1 X80.960 Y85.248 E9.88691
G1 X80.960 Y84.305 E9.91880
G1 X83.826 Y87.172 E10.05598
G1 X84.769 Y87.172 E10.08786
G1 X80.960 Y83.363 E10.27013
G1 X80.960 Y82.421 E10.30202
G1 X85.711 Y87.172 E10.52938
G1 X86.653 Y87.172 E10.56126
G1 X80.960 Y81.479 E10.83371
G1 X80.960 Y80.536 E10.86559
G1 X87.595 Y87.172 E11.18313
G1 X88.538 Y87.172 E11.21501
G1 X80.960 Y79.594 E11.57764
G1 X80.960 Y78.652 E11.60953
G1 X89.480 Y87.172 E12.01724
G1 X90.422 Y87.172 E12.04913
G1 X80.960 Y77.710 E12.50193
G1 X80.960 Y76.767 E12.53382
G1 X91.364 Y87.172 E13.03171
G1 X92.307 Y87.172 E13.06360
G1 X80.960 Y75.825 E13.60658
G1 X80.960 Y74.883 E13.63846
G1 X93.249 Y87.172 E14.22654
G1 X94.191 Y87.172 E14.25842
G1 X80.960 Y73.941 E14.89159
G1 X80.960 Y72.998 E14.92347
G1 X95.134 Y87.172 E15.60172
G1 X96.076 Y87.172 E15.63360
G1 X80.960 Y72.056 E16.35695
G1 X80.960 Y71.114 E16.38883
G1 X97.018 Y87.172 E17.15726
G1 X97.960 Y87.172 E17.18914
G1 X80.960 Y70.172 E18.00267
G1 X80.980 Y69.249 E18.03388
G1 X98.883 Y87.152 E18.89058
G1 X98.903 Y86.230 E18.92179
G1 X81.902 Y69.229 E19.73531
G1 X82.844 Y69.229 E19.76719
G1 X98.903 Y85.288 E20.53562
G1 X98.903 Y84.345 E20.56751
G1 X83.786 Y69.229 E21.29085
G1 X84.729 Y69.229 E21.32273
G1 X98.903 Y83.403 E22.00099
G1 X98.903 Y82.461 E22.03287
G1 X85.671 Y69.229 E22.66603
G1 X86.613 Y69.229 E22.69792
G1 X98.903 Y81.519 E23.28599
G1 X98.903 Y80.576 E23.31787
G1 X87.555 Y69.229 E23.86086
G1 X88.498 Y69.229 E23.89274
G1 X98.903 Y79.634 E24.39064
G1 X98.903 Y78.692 E24.42252
G1 X89.440 Y69.229 E24.87533
G1 X90.382 Y69.229 E24.90721
G1 X98.903 Y77.750 E25.31493
G1 X98.903 Y76.807 E25.34681
G1 X91.324 Y69.229 E25.70944
G1 X92.267 Y69.229 E25.74132
G1 X98.903 Y75.865 E26.05886
G1 X98.903 Y74.923 E26.09074
G1 X93.209 Y69.229 E26.36319
G1 X94.151 Y69.229 E26.39508
G1 X98.903 Y73.981 E26.62244
G1 X98.903 Y73.038 E26.65432
G1 X95.094 Y69.229 E26.83659
G1 X96.036 Y69.229 E26.86847
G1 X98.903 Y72.096 E27.00566
G1 X98.903 Y71.154 E27.03754
G1 X96.978 Y69.229 E27.12963
G1 X97.920 Y69.229 E27.16152
G1 X98.903 Y70.212 E27.20852
G1 X98.903 Y69.269 E27.24040
G1 X98.863 Y69.229 E27.24232
M106 S193
G1 F1800.000 E25.74232
G92 E0
G1 Z0.550 F7800.000
G1 X99.325 Y93.031 F7800.000
G1 E1.50000 F1800.000
G1 X99.327 Y94.761 E1.52306 F1800.000
G1 X99.353 Y94.795 E1.52363
G1 X99.380 Y101.007 E1.60641
G1 X99.371 Y106.209 E1.67573
G1 X99.354 Y106.249 E1.67631
G1 X99.351 Y109.314 E1.71715
G1 X99.332 Y109.340 E1.71759
G1 X99.358 Y111.055 E1.74045
G1 X97.628 Y111.057 E1.76351
G1 X97.594 Y111.083 E1.76408
G1 X90.338 Y111.112 E1.86078
G1 X83.076 Y111.082 E1.95756
G1 X83.049 Y111.062 E1.95799
G1 X81.334 Y111.089 E1.98086
G1 X81.332 Y109.358 E2.00392
G1 X81.306 Y109.324 E2.00449
G1 X81.278 Y103.112 E2.08727
G1 X81.288 Y97.911 E2.15659
G1 X81.305 Y97.871 E2.15716
G1 X81.307 Y94.806 E2.19801
G1 X81.327 Y94.780 E2.19844
G1 X81.301 Y93.064 E2.22131
G1 X83.031 Y93.063 E2.24437
G1 X83.065 Y93.037 E2.24494
G1 X89.277 Y93.009 E2.32772
G1 X94.479 Y93.018 E2.39704
G1 X94.518 Y93.035 E2.39761
G1 X97.583 Y93.038 E2.43846
G1 X97.609 Y93.058 E2.43889
G1 X99.250 Y93.032 E2.46076
G1 X98.872 Y93.491 F7800.000
G1 X98.874 Y94.914 E2.47973 F1800.000
G1 X98.900 Y94.949 E2.48030
G1 X98.928 Y101.037 E2.56143
G1 X98.918 Y106.119 E2.62916
G1 X98.902 Y106.158 E2.62973
G1 X98.899 Y109.161 E2.66975
G1 X98.876 Y109.191 E2.67024
G1 X98.898 Y110.603 E2.68906
G1 X97.475 Y110.604 E2.70803
G1 X97.441 Y110.630 E2.70860
G1 X90.338 Y110.659 E2.80325
G1 X83.228 Y110.629 E2.89801
G1 X83.198 Y110.607 E2.89850
G1 X81.786 Y110.629 E2.91732
G1 X81.785 Y109.205 E2.93629
G1 X81.759 Y109.171 E2.93686
G1 X81.731 Y103.083 E3.01799
G1 X81.741 Y98.001 E3.08572
G1 X81.757 Y97.961 E3.08629
G1 X81.760 Y94.958 E3.12631
G1 X81.783 Y94.929 E3.12680
G1 X81.761 Y93.517 E3.14562
G1 X83.184 Y93.515 E3.16459
G1 X83.218 Y93.489 E3.16516
G1 X89.306 Y93.462 E3.24630
G1 X94.388 Y93.471 E3.31402
G1 X94.428 Y93.488 E3.31459
G1 X97.431 Y93.491 E3.35461
G1 X97.460 Y93.513 E3.35510
G1 X98.797 Y93.492 E3.37292
G1 X98.420 Y93.951 F7800.000
G1 X98.421 Y95.068 E3.38780 F1260.000
G1 X98.447 Y95.102 E3.38838
G1 X98.475 Y101.066 E3.46786
G1 X98.446 Y109.009 E3.57371
G1 X98.421 Y109.042 E3.57426
G1 X98.438 Y110.150 E3.58903
G1 X97.322 Y110.151 E3.60391
G1 X97.288 Y110.177 E3.60449
G1 X90.338 Y110.206 E3.69710
G1 X83.380 Y110.176 E3.78982
G1 X83.347 Y110.152 E3.79037
G1 X82.239 Y110.169 E3.80514
G1 X82.238 Y109.052 E3.82003
G1 X82.212 Y109.018 E3.82060
G1 X82.184 Y103.053 E3.90009
G1 X82.213 Y95.110 E4.00593
G1 X82.238 Y95.078 E4.00648
G1 X82.221 Y93.969 E4.02126
G1 X83.337 Y93.968 E4.03614
G1 X83.371 Y93.942 E4.03671
G1 X89.336 Y93.915 E4.11620
G1 X97.279 Y93.943 E4.22204
G1 X97.312 Y93.968 E4.22259
G1 X98.345 Y93.952 E4.23637
G1 X98.920 Y93.948 F7800.000
G1 X99.834 Y92.554 F7800.000
G1 X99.836 Y111.564 E4.48971 F1800.000
G1 X80.825 Y111.566 E4.74305
G1 X80.823 Y92.555 E4.99640
G1 X99.759 Y92.554 E5.24874
G1 X100.487 Y91.902 F7800.000
G1 X100.487 Y92.327 E5.25439 F1800.000
G1 X100.287 Y92.327 E5.25706
G1 X100.289 Y111.793 E5.51647
G1 X100.487 Y111.793 E5.51911
G1 X100.487 Y112.217 E5.52477
G1 X100.063 Y112.217 E5.53042
G1 X100.063 Y112.017 E5.53309
G1 X80.597 Y112.019 E5.79250
G1 X80.597 Y112.217 E5.79514
G1 X80.172 Y112.217 E5.80080
G1 X80.172 Y111.793 E5.80645
G1 X80.372 Y111.793 E5.80912
G1 X80.370 Y92.327 E6.06853
G1 X80.172 Y92.327 E6.07117
G1 X80.172 Y91.902 E6.07683
G1 X80.596 Y91.902 E6.08249
G1 X80.596 Y92.102 E6.08515
G1 X100.062 Y92.101 E6.34456
G1 X100.062 Y91.902 E6.34721
G1 X100.412 Y91.902 E6.35186
G1 X81.049 Y91.649 F7800.000
G1 X99.609 Y91.648 E6.59921 F1260.000
G1 X99.609 Y91.450 E6.60185
G1 X100.940 Y91.450 E6.61958
G1 X100.940 Y92.779 E6.63730
G1 X100.740 Y92.779 E6.63997
G1 X100.741 Y111.340 E6.88731
G1 X100.940 Y111.340 E6.88995
G1 X100.940 Y112.670 E6.90768
G1 X99.610 Y112.670 E6.92540
G1 X99.610 Y112.470 E6.92807
G1 X81.050 Y112.472 E7.17541
G1 X81.050 Y112.670 E7.17805
G1 X79.719 Y112.670 E7.19578
G1 X79.719 Y111.340 E7.21350
G1 X79.919 Y111.340 E7.21617
G1 X79.918 Y92.780 E7.46351
G1 X79.719 Y92.780 E7.46615
G1 X79.719 Y91.449 E7.48388
G1 X81.049 Y91.449 E7.50160
G1 X81.049 Y91.574 E7.50327
G1 X81.049 Y92.149 F7800.000
G1 F1800.000 E6.00327
G92 E0
G1 X79.965 Y88.167 F7800.000
G1 E1.50000 F1800.000
G1 X79.965 Y68.234 E1.76563 F1800.000
G1 X99.897 Y68.234 E2.03125
G1 X99.897 Y88.167 E2.29688
G1 X80.040 Y88.167 E2.56151
G1 X79.512 Y88.620 F7800.000
G1 X79.512 Y67.782 E2.83921 F1800.000
G1 X100.350 Y67.782 E3.11690
G1 X100.350 Y88.620 E3.39460
G1 X79.587 Y88.620 E3.67130
G1 X79.059 Y89.073 F7800.000
G1 X79.059 Y67.329 E3.96107 F1260.000
G1 X100.803 Y67.329 E4.25083
G1 X100.803 Y89.073 E4.54060
G1 X79.134 Y89.073 E4.82937
G1 X79.309 Y88.640 F7800.000
G1 X80.273 Y68.583 F7800.000
G1 X80.313 Y68.543 E4.83012 F3600.000
G1 X80.956 Y68.543 E4.83869
G1 X80.273 Y69.225 E4.85155
G1 X80.273 Y69.868 E4.86011
G1 X81.598 Y68.543 E4.88508
G1 X82.241 Y68.543 E4.89365
G1 X80.273 Y70.510 E4.93073
G1 X80.273 Y71.153 E4.93929
G1 X82.883 Y68.543 E4.98848
G1 X83.526 Y68.543 E4.99704
G1 X80.273 Y71.795 E5.05834
G1 X80.273 Y72.438 E5.06691
G1 X84.168 Y68.543 E5.14032
G1 X84.811 Y68.543 E5.14888
G1 X80.273 Y73.081 E5.23440
G1 X80.273 Y73.723 E5.24296
G1 X85.453 Y68.543 E5.34059
G1 X86.096 Y68.543 E5.34915
G1 X80.273 Y74.366 E5.45889
G1 X80.273 Y75.008 E5.46745
G1 X86.738 Y68.543 E5.58930
G1 X87.381 Y68.543 E5.59786
G1 X80.273 Y75.651 E5.73182
G1 X80.273 Y76.293 E5.74038
G1 X88.024 Y68.543 E5.88644
G1 X88.666 Y68.543 E5.89501
G1 X80.273 Y76.936 E6.05318
G1 X80.273 Y77.578 E6.06174
G1 X89.309 Y68.543 E6.23203
G1 X89.951 Y68.543 E6.24059
G1 X80.273 Y78.221 E6.42298
G1 X80.273 Y78.863 E6.43154
G1 X90.594 Y68.543 E6.62605
G1 X91.236 Y68.543 E6.63461
G1 X80.273 Y79.506 E6.84122
G1 X80.273 Y80.148 E6.84978
G1 X91.879 Y68.543 E7.06850
G1 X92.521 Y68.543 E7.07707
G1 X80.273 Y80.791 E7.30790
G1 X80.273 Y81.433 E7.31646
G1 X93.164 Y68.543 E7.55940
G1 X93.806 Y68.543 E7.56796
G1 X80.273 Y82.076 E7.82301
G1 X80.273 Y82.718 E7.83157
G1 X94.449 Y68.543 E8.09873
G1 X95.091 Y68.543 E8.10729
G1 X80.273 Y83.361 E8.38656
G1 X80.273 Y84.004 E8.39512
G1 X95.734 Y68.543 E8.68650
G1 X96.376 Y68.543 E8.69506
G1 X80.273 Y84.646 E8.99855
G1 X80.273 Y85.289 E9.00711
G1 X97.019 Y68.543 E9.32270
G1 X97.661 Y68.543 E9.33127
G1 X80.273 Y85.931 E9.65897
G1 X80.273 Y86.574 E9.66753
G1 X98.304 Y68.543 E10.00735
G1 X98.947 Y68.543 E10.01591
G1 X80.273 Y87.216 E10.36783
G1 X80.293 Y87.839 E10.37613
G1 X99.569 Y68.563 E10.73941
G1 X99.589 Y69.185 E10.74771
G1 X80.916 Y87.859 E11.09963
G1 X81.558 Y87.859 E11.10820
G1 X99.589 Y69.828 E11.44801
G1 X99.589 Y70.470 E11.45657
G1 X82.201 Y87.859 E11.78428
G1 X82.843 Y87.859 E11.79284
G1 X99.589 Y71.113 E12.10843
G1 X99.589 Y71.755 E12.11700
G1 X83.486 Y87.859 E12.42048
G1 X84.128 Y87.859 E12.42905
G1 X99.589 Y72.398 E12.72042
G1 X99.589 Y73.041 E12.72898
G1 X84.771 Y87.859 E13.00825
G1 X85.413 Y87.859 E13.01681
G1 X99.589 Y73.683 E13.28397
G1 X99.589 Y74.326 E13.29253
G1 X86.056 Y87.859 E13.54758
G1 X86.698 Y87.859 E13.55615
G1 X99.589 Y74.968 E13.79909
G1 X99.589 Y75.611 E13.80765
G1 X87.341 Y87.859 E14.03848
G1 X87.984 Y87.859 E14.04704
G1 X99.589 Y76.253 E14.26576
G1 X99.589 Y76.896 E14.27432
G1 X88.626 Y87.859 E14.48094
G1 X89.269 Y87.859 E14.48950
G1 X99.589 Y77.538 E14.68400
G1 X99.589 Y78.181 E14.69256
G1 X89.911 Y87.859 E14.87496
G1 X90.554 Y87.859 E14.88352
G1 X99.589 Y78.823 E15.05380
G1 X99.589 Y79.466 E15.06236
G1 X91.196 Y87.859 E15.22054
G1 X91.839 Y87.859 E15.22910
G1 X99.589 Y80.108 E15.37517
G1 X99.589 Y80.751 E15.38373
G1 X92.481 Y87.859 E15.51768
G1 X93.124 Y87.859 E15.52625
G1 X99.589 Y81.393 E15.64809
G1 X99.589 Y82.036 E15.65666
G1 X93.766 Y87.859 E15.76639
G1 X94.409 Y87.859 E15.77496
G1 X99.589 Y82.678 E15.87258
G1 X99.589 Y83.321 E15.88115
G1 X95.051 Y87.859 E15.96667
G1 X95.694 Y87.859 E15.97523
G1 X99.589 Y83.964 E16.04864
G1 X99.589 Y84.606 E16.05720
G1 X96.336 Y87.859 E16.11850
G1 X96.979 Y87.859 E16.12706
G1 X99.589 Y85.249 E16.17625
G1 X99.589 Y85.891 E16.18482
G1 X97.621 Y87.859 E16.22190
G1 X98.264 Y87.859 E16.23046
G1 X99.589 Y86.534 E16.25543
G1 X99.589 Y87.176 E16.26400
G1 X98.907 Y87.859 E16.27686
G1 X99.549 Y87.859 E16.28542
G1 X99.589 Y87.819 E16.28618
M106 S243
G1 F1800.000 E14.78618
G92 E0
G1 Z0.750 F7800.000
G1 X81.516 Y93.279 F7800.000
G1 E1.50000 F1800.000
G1 X83.213 Y93.278 E1.52261 F1800.000
G1 X83.262 Y93.240 E1.52344
G1 X86.231 Y93.237 E1.56300
G1 X86.288 Y93.213 E1.56383
G1 X89.310 Y93.203 E1.60410
G1 X94.364 Y93.215 E1.67145
G1 X94.421 Y93.238 E1.67227
G1 X97.386 Y93.241 E1.71178
G1 X97.427 Y93.273 E1.71248
G1 X99.110 Y93.247 E1.73490
G1 X99.112 Y94.943 E1.75751
G1 X99.149 Y94.993 E1.75834
G1 X99.152 Y97.961 E1.79790
G1 X99.176 Y98.019 E1.79873
G1 X99.188 Y102.052 E1.85247
G1 X99.175 Y106.094 E1.90635
G1 X99.151 Y106.152 E1.90718
G1 X99.148 Y109.116 E1.94668
G1 X99.117 Y109.158 E1.94738
G1 X99.143 Y110.840 E1.96980
G1 X97.446 Y110.842 E1.99241
G1 X97.397 Y110.880 E1.99324
G1 X94.428 Y110.883 E2.03280
G1 X94.371 Y110.906 E2.03363
G1 X91.348 Y110.917 E2.07390
G1 X86.295 Y110.905 E2.14125
G1 X86.237 Y110.881 E2.14208
G1 X83.273 Y110.878 E2.18158
G1 X83.231 Y110.847 E2.18228
G1 X81.549 Y110.873 E2.20470
G1 X81.547 Y109.176 E2.22731
G1 X81.510 Y109.127 E2.22814
G1 X81.507 Y106.158 E2.26770
G1 X81.483 Y106.101 E2.26853
G1 X81.472 Y103.079 E2.30880
G1 X81.484 Y98.025 E2.37615
G1 X81.508 Y97.968 E2.37698
G1 X81.511 Y95.003 E2.41648
G1 X81.542 Y94.962 E2.41718
G1 X81.517 Y93.354 E2.43860
G1 X81.976 Y93.732 F7800.000
G1 X83.366 Y93.730 E2.45712 F1800.000
G1 X83.415 Y93.693 E2.45795
G1 X86.321 Y93.690 E2.49667
G1 X86.378 Y93.666 E2.49750
G1 X89.340 Y93.655 E2.53697
G1 X97.234 Y93.694 E2.64216
G1 X97.279 Y93.728 E2.64291
G1 X98.658 Y93.706 E2.66129
G1 X98.659 Y95.096 E2.67981
G1 X98.697 Y95.146 E2.68064
G1 X98.699 Y98.051 E2.71936
G1 X98.723 Y98.109 E2.72019
G1 X98.735 Y102.051 E2.77273
G1 X98.722 Y106.004 E2.82540
G1 X98.698 Y106.061 E2.82623
G1 X98.695 Y108.964 E2.86492
G1 X98.661 Y109.009 E2.86567
G1 X98.683 Y110.388 E2.88404
G1 X97.293 Y110.389 E2.90257
G1 X97.244 Y110.427 E2.90339
G1 X94.338 Y110.430 E2.94211
G1 X94.281 Y110.453 E2.94294
G1 X91.319 Y110.464 E2.98241
G1 X83.425 Y110.426 E3.08761
G1 X83.380 Y110.392 E3.08836
G1 X82.001 Y110.413 E3.10673
G1 X82.000 Y109.023 E3.12526
G1 X81.962 Y108.974 E3.12608
G1 X81.960 Y106.069 E3.16480
G1 X81.936 Y106.011 E3.16563
G1 X81.925 Y103.049 E3.20510
G1 X81.964 Y95.155 E3.31030
G1 X81.997 Y95.111 E3.31105
G1 X81.977 Y93.807 E3.32843
G1 X82.436 Y94.184 F7800.000
G1 X83.519 Y94.183 E3.34286 F1260.000
G1 X83.569 Y94.145 E3.34369
G1 X86.410 Y94.143 E3.38156
G1 X86.468 Y94.119 E3.38239
G1 X89.370 Y94.108 E3.42106
G1 X97.082 Y94.147 E3.52383
G1 X97.130 Y94.183 E3.52463
G1 X98.205 Y94.166 E3.53897
G1 X98.206 Y95.249 E3.55340
