; generated by Slic3r 1.2.9 on 2016-01-06 at 20:24:24

; external perimeters extrusion width = 0.40mm
; perimeters extrusion width = 0.56mm
; infill extrusion width = 0.56mm
; solid infill extrusion width = 0.56mm
; top infill extrusion width = 0.56mm

M107
G28 ; home all axes

G21 ; set units to millimeters
G90 ; use absolute coordinates
M82 ; use absolute distances for extrusion
G92 E0
G1 Z0.250 F7800.000
G1 E-4.00000 F1500.00000
G92 E0
G1 X75.092 Y86.570 F7800.000
G1 E4.00000 F1500.00000
G1 X76.839 Y85.132 E4.10494 F1800.000
G1 X80.000 Y84.304 E4.25657
G1 X92.500 Y84.304 E4.83648
G1 X95.365 Y84.976 E4.97302
G1 X121.365 Y97.877 E6.31957 F1800.000
G1 X122.424 Y98.538 E6.37746
G1 X123.046 Y99.014 E6.41379
G1 X124.236 Y100.204 E6.49186
G1 X124.712 Y100.826 E6.52820
G1 X125.554 Y102.283 E6.60627
G1 X125.853 Y103.007 E6.64260
G1 X126.289 Y104.632 E6.72067
G1 X126.391 Y105.409 E6.75700
G1 X126.391 Y107.091 E6.83508
G1 X126.289 Y107.868 E6.87141
G1 X125.853 Y109.493 E6.94948
G1 X125.554 Y110.217 E6.98581
G1 X124.712 Y111.674 E7.06388
G1 X124.236 Y112.296 E7.10022
G1 X123.046 Y113.485 E7.17828
G1 X122.424 Y113.962 E7.21462
G1 X120.967 Y114.804 E7.29269
G1 X120.243 Y115.103 E7.32902
G1 X118.618 Y115.539 E7.40710
G1 X117.841 Y115.641 E7.44343
G1 X116.479 Y115.675 E7.50665
G1 X79.479 Y112.675 E9.22881
G1 X77.291 Y112.100 E9.33376
G1 X75.437 Y110.804 E9.43870
G1 X74.145 Y108.947 E9.54365
G1 X73.554 Y106.250 E9.67175
G1 X73.554 Y90.750 E10.39083
G1 X73.951 Y88.523 E10.49578
G1 X75.062 Y86.622 E10.59794
G1 E6.59794 F1500.00000
G92 E0
G1 X118.149 Y108.240 F7800.000
G1 E4.00000 F1500.00000
G1 X117.595 Y108.469 E4.02783 F1800.000
G1 X117.000 Y108.548 E4.05565
G1 X116.405 Y108.469 E4.08348
G1 X115.851 Y108.240 E4.11131
G1 X115.375 Y107.875 E4.13913
G1 X115.010 Y107.399 E4.16696
G1 X114.781 Y106.845 E4.19479
G1 X114.702 Y106.250 E4.22261
G1 X114.781 Y105.655 E4.25044
G1 X115.010 Y105.101 E4.27827
G1 X115.375 Y104.625 E4.30609
G1 X115.851 Y104.260 E4.33392
G1 X116.405 Y104.031 E4.36174
G1 X117.000 Y103.952 E4.38957
G1 X117.595 Y104.031 E4.41740
G1 X118.149 Y104.260 E4.44522 F1800.000
G1 X118.625 Y104.625 E4.47305
G1 X118.990 Y105.101 E4.50088
G1 X119.219 Y105.655 E4.52870
G1 X119.298 Y106.250 E4.55653
G1 X119.219 Y106.845 E4.58436
G1 X118.990 Y107.399 E4.61218
G1 X118.625 Y107.875 E4.64001
G1 X118.196 Y108.203 E4.66505
G1 X118.421 Y108.594 F7800.000
G1 X118.374 Y108.630 E4.66778 F1800.000
G1 X117.711 Y108.904 E4.70106
G1 X117.000 Y108.998 E4.73434
G1 X116.289 Y108.904 E4.76762
G1 X115.626 Y108.630 E4.80089
G1 X115.057 Y108.193 E4.83417
G1 X114.620 Y107.624 E4.86745
G1 X114.346 Y106.961 E4.90073
G1 X114.252 Y106.250 E4.93401
G1 X114.346 Y105.539 E4.96729
G1 X114.620 Y104.876 E5.00057
G1 X115.057 Y104.307 E5.03385
G1 X115.626 Y103.870 E5.06713
G1 X116.289 Y103.596 E5.10040
G1 X117.032 Y103.506 E5.13514
G1 X117.711 Y103.596 E5.16691 F1800.000
G1 X118.374 Y103.870 E5.20019
G1 X118.943 Y104.307 E5.23347
G1 X119.380 Y104.876 E5.26675
G1 X119.654 Y105.539 E5.30003
G1 X119.748 Y106.250 E5.33331
G1 X119.654 Y106.961 E5.36659
G1 X119.380 Y107.624 E5.39987
G1 X118.943 Y108.193 E5.43314
G1 X118.468 Y108.557 E5.46091
G1 X118.366 Y108.571 F7800.000
G1 X116.984 Y108.265 F7800.000
G1 X114.985 Y106.266 E5.60162 F1800.000
G1 X115.040 Y105.644 E5.63267
G1 X117.606 Y108.210 E5.81319
G1 X118.080 Y108.007 E5.83886
G1 X115.243 Y105.170 E6.03850
G1 X115.551 Y104.801 E6.06242
G1 X118.449 Y107.699 E6.26633
G1 X118.757 Y107.330 E6.29025
G1 X115.920 Y104.493 E6.48989
G1 X116.394 Y104.290 E6.51556
G1 X118.960 Y106.856 E6.69608
G1 X119.015 Y106.234 E6.72713
G1 X117.016 Y104.235 E6.86784
G1 X118.151 Y104.693 F7800.000
G1 X118.557 Y105.099 E6.89641 F1800.000
G1 X115.849 Y107.807 F7800.000
G1 X115.443 Y107.401 E6.92498 F1800.000
G1 E2.92498 F1500.00000
G92 E0
G1 X101.304 Y105.554 F7800.000
G1 E4.00000 F1500.00000
G1 X80.696 Y105.554 E4.95603 F1800.000
G1 X80.696 Y91.446 E5.61050
G1 X92.285 Y91.446 E6.14811
G1 X101.304 Y97.617 E6.65510
G1 X101.304 Y105.494 E7.02050
G1 X101.750 Y106.000 F7800.000
G1 X80.250 Y106.000 E8.01794 F1800.000
G1 X80.250 Y91.000 E8.71383
G1 X92.423 Y91.000 E9.27855
G1 X101.750 Y97.382 E9.80287
G1 X101.750 Y105.940 E10.19990
G1 X101.404 Y105.800 F7800.000
G1 X101.039 Y97.932 F7800.000
G1 X100.753 Y97.646 E10.21872 F1800.000
G1 X101.039 Y98.565 E10.26346
G1 X98.749 Y96.275 E10.41403
G1 X96.746 Y94.904 F7800.000
G1 X101.039 Y99.197 E10.69634 F1800.000
G1 X101.039 Y99.830 E10.72576
G1 X94.742 Y93.534 E11.13983
G1 X92.739 Y92.163 F7800.000
G1 X101.039 Y100.463 E11.68564 F1800.000
G1 X101.039 Y101.096 E11.71506
G1 X91.654 Y91.711 E12.33219
G1 X91.022 Y91.711 E12.36160
G1 X101.039 Y101.728 E13.02033
G1 X101.039 Y102.361 E13.04975
G1 X90.389 Y91.711 E13.75008
G1 X89.756 Y91.711 E13.77950
G1 X101.039 Y102.994 E14.52144
G1 X101.039 Y103.626 E14.55086
G1 X89.124 Y91.711 E15.33440
G1 X88.491 Y91.711 E15.36382
G1 X101.039 Y104.259 E16.18897
G1 X101.039 Y104.892 E16.21839
G1 X87.858 Y91.711 E17.08515
G1 X87.226 Y91.711 E17.11457
G1 X100.804 Y105.289 E18.00745
G1 X100.171 Y105.289 E18.03687
G1 X86.593 Y91.711 E18.92975
G1 X85.960 Y91.711 E18.95917
G1 X99.538 Y105.289 E19.85205
G1 X98.906 Y105.289 E19.88147
G1 X85.328 Y91.711 E20.77436
G1 X84.695 Y91.711 E20.80378
G1 X98.273 Y105.289 E21.69666
G1 X97.640 Y105.289 E21.72608
G1 X84.062 Y91.711 E22.61896
G1 X83.430 Y91.711 E22.64838
G1 X97.008 Y105.289 E23.54126
G1 X96.375 Y105.289 E23.57068
G1 X82.797 Y91.711 E24.46357
G1 X82.164 Y91.711 E24.49299
G1 X95.742 Y105.289 E25.38587
G1 X95.109 Y105.289 E25.41529
G1 X81.532 Y91.711 E26.30817
G1 X80.961 Y91.773 E26.33486
G1 X94.477 Y105.289 E27.22365
G1 X93.844 Y105.289 E27.25307
G1 X80.961 Y92.406 E28.10026
G1 X80.961 Y93.039 E28.12968
G1 X93.211 Y105.289 E28.93526
G1 X92.579 Y105.289 E28.96468
G1 X80.961 Y93.671 E29.72865
G1 X80.961 Y94.304 E29.75807
G1 X91.946 Y105.289 E30.48045
G1 X91.313 Y105.289 E30.50986
G1 X80.961 Y94.937 E31.19063
G1 X80.961 Y95.569 E31.22005
G1 X90.681 Y105.289 E31.85921
G1 X90.048 Y105.289 E31.88863
G1 X80.961 Y96.202 E32.48619
G1 X80.961 Y96.835 E32.51561
G1 X89.415 Y105.289 E33.07156
G1 X88.783 Y105.289 E33.10098
G1 X80.961 Y97.467 E33.61532
G1 X80.961 Y98.100 E33.64474
G1 X88.150 Y105.289 E34.11748
G1 X87.517 Y105.289 E34.14690
G1 X80.961 Y98.733 E34.57803
G1 X80.961 Y99.365 E34.60745
G1 X86.885 Y105.289 E34.99698
G1 X86.252 Y105.289 E35.02640
G1 X80.961 Y99.998 E35.37433
G1 X80.961 Y100.631 E35.40375
G1 X85.619 Y105.289 E35.71006
G1 X84.986 Y105.289 E35.73948
G1 X80.961 Y101.264 E36.00420
G1 X80.961 Y101.896 E36.03362
G1 X84.354 Y105.289 E36.25672
G1 X83.721 Y105.289 E36.28614
G1 X80.961 Y102.529 E36.46765
G1 X80.961 Y103.162 E36.49707
G1 X83.088 Y105.289 E36.63696
G1 X82.456 Y105.289 E36.66638
G1 X80.961 Y103.794 E36.76467
G1 X80.961 Y104.427 E36.79409
G1 X81.823 Y105.289 E36.85078
G1 X81.190 Y105.289 E36.88020
G1 X80.961 Y105.060 E36.89528
G1 Z0.500 F7800.000
G1 E32.89528 F1500.00000
G92 E0
G1 X114.630 Y106.250 F7800.000
G1 E4.00000 F1500.00000
G1 X114.711 Y105.637 E4.03233 F900.000
G1 X114.947 Y105.065 E4.06465
G1 X115.324 Y104.574 E4.09698
G1 X115.815 Y104.197 E4.12930
G1 X116.387 Y103.961 E4.16163
G1 X117.000 Y103.880 E4.19395
G1 X117.113 Y103.895 E4.19988
G1 X117.613 Y103.961 E4.22628 F900.000
G1 X118.185 Y104.197 E4.25860
G1 X118.676 Y104.574 E4.29093
G1 X119.053 Y105.065 E4.32325
G1 X119.289 Y105.637 E4.35558
G1 X119.370 Y106.250 E4.38790
G1 X119.289 Y106.863 E4.42023
G1 X119.053 Y107.435 E4.45255
G1 X118.676 Y107.926 E4.48488
G1 X118.185 Y108.303 E4.51720
G1 X117.613 Y108.539 E4.54953
G1 X117.000 Y108.620 E4.58185
G1 X116.387 Y108.539 E4.61418
G1 X115.815 Y108.303 E4.64650
G1 X115.324 Y107.926 E4.67883
G1 X114.947 Y107.435 E4.71115
G1 X114.711 Y106.863 E4.74348
G1 X114.638 Y106.309 E4.77267
G1 X114.209 Y106.305 F7800.000
G1 X114.202 Y106.250 E4.77468 F900.000
G1 X114.297 Y105.526 E4.80098
G1 X114.577 Y104.851 E4.82727
G1 X115.021 Y104.271 E4.85357
G1 X115.601 Y103.827 E4.87987
G1 X116.276 Y103.547 E4.90616
G1 X117.000 Y103.452 E4.93246
G1 X117.168 Y103.474 E4.93856
G1 X117.724 Y103.547 E4.95876 F900.000
G1 X118.399 Y103.827 E4.98506
G1 X118.979 Y104.271 E5.01135
G1 X119.423 Y104.851 E5.03765
G1 X119.703 Y105.526 E5.06395
G1 X119.798 Y106.250 E5.09024
G1 X119.703 Y106.974 E5.11654
G1 X119.423 Y107.649 E5.14284
G1 X118.979 Y108.229 E5.16914
G1 X118.399 Y108.673 E5.19543
G1 X117.724 Y108.953 E5.22173
G1 X117.000 Y109.048 E5.24803
G1 X116.276 Y108.953 E5.27432
G1 X115.601 Y108.673 E5.30062
G1 X115.021 Y108.229 E5.32692
G1 X114.577 Y107.649 E5.35321
G1 X114.297 Y106.974 E5.37951
G1 X114.217 Y106.365 E5.40164
G1 X114.253 Y106.271 F7800.000
G1 X115.414 Y105.094 F7800.000
G1 X115.844 Y104.664 E5.43665 F1200.000
G1 X117.107 Y104.184 F7800.000
G1 X114.934 Y106.357 E5.61362 F1200.000
G1 X115.062 Y107.012 E5.65207
G1 X117.762 Y104.312 E5.87196
G1 X118.270 Y104.588 E5.90524
G1 X115.338 Y107.520 E6.14408
G1 X115.730 Y107.912 E6.17598
G1 X118.662 Y104.980 E6.41482
G1 X118.938 Y105.488 E6.44810
G1 X116.238 Y108.188 E6.66800
G1 X116.893 Y108.316 E6.70645
G1 X119.066 Y106.143 E6.88342
G1 X118.586 Y107.406 F7800.000
G1 X118.156 Y107.836 E6.91843 F1200.000
G1 E2.91843 F1500.00000
G92 E0
G1 X101.375 Y105.625 F7800.000
G1 E4.00000 F1500.00000
G1 X80.625 Y105.625 E5.08413 F3600.000
G1 X80.625 Y91.375 E5.82868
G1 X92.307 Y91.375 E6.43902
G1 X101.375 Y97.579 E7.01310
G1 X101.375 Y105.565 E7.43033
G1 X101.800 Y106.050 F7800.000
G1 X80.200 Y106.050 E8.20791 F1800.000
G1 X80.200 Y90.950 E8.75149
G1 X92.438 Y90.950 E9.19205
G1 X101.800 Y97.355 E9.60040
G1 X101.800 Y105.990 E9.91123
G1 X101.454 Y105.850 F7800.000
G1 X100.822 Y105.325 F7800.000
G1 X101.075 Y105.072 E9.93028 F1200.000
G1 X101.075 Y104.348 E9.96878
G1 X100.098 Y105.325 E10.04228
G1 X99.374 Y105.325 E10.08078
G1 X101.075 Y103.624 E10.20872
G1 X101.075 Y102.900 E10.24722
G1 X98.650 Y105.325 E10.42961
G1 X97.927 Y105.325 E10.46811
G1 X101.075 Y102.177 E10.70495
G1 X101.075 Y101.453 E10.74345
G1 X97.203 Y105.325 E11.03473
G1 X96.479 Y105.325 E11.07323
G1 X101.075 Y100.729 E11.41896
G1 X101.075 Y100.005 E11.45746
G1 X95.755 Y105.325 E11.85763
G1 X95.032 Y105.325 E11.89613
G1 X101.075 Y99.282 E12.35075
G1 X101.075 Y98.558 E12.38925
G1 X94.308 Y105.325 E12.89832
G1 X93.584 Y105.325 E12.93682
G1 X101.075 Y97.834 E13.50033
G1 X100.732 Y97.453 E13.52759
G1 X92.860 Y105.325 E14.11976
G1 X92.136 Y105.325 E14.15826
G1 X100.302 Y97.159 E14.77255
G1 X99.873 Y96.865 E14.80025
G1 X91.413 Y105.325 E15.43666
G1 X90.689 Y105.325 E15.47516
G1 X99.443 Y96.571 E16.13369
G1 X99.013 Y96.277 E16.16139
G1 X89.965 Y105.325 E16.84203
G1 X89.241 Y105.325 E16.88053
G1 X98.583 Y95.983 E17.58330
G1 X98.154 Y95.689 E17.61100
G1 X88.518 Y105.325 E18.33588
G1 X87.794 Y105.325 E18.37438
G1 X97.724 Y95.395 E19.12138
G1 X97.294 Y95.101 E19.14908
G1 X87.070 Y105.325 E19.91820
G1 X86.346 Y105.325 E19.95670
G1 X96.864 Y94.807 E20.74794
G1 X96.435 Y94.513 E20.77564
G1 X85.623 Y105.325 E21.58900
G1 X84.899 Y105.325 E21.62750
G1 X96.005 Y94.219 E22.46298
G1 X95.575 Y93.925 E22.49068
G1 X84.175 Y105.325 E23.34827
G1 X83.451 Y105.325 E23.38677
G1 X95.146 Y93.631 E24.26649
G1 X94.716 Y93.337 E24.29419
G1 X82.728 Y105.325 E25.19602
G1 X82.004 Y105.325 E25.23452
G1 X94.286 Y93.043 E26.15847
G1 X93.856 Y92.749 E26.18617
G1 X81.280 Y105.325 E27.13224
G1 X80.925 Y104.956 E27.15947
G1 X93.427 Y92.455 E28.09991
G1 X92.997 Y92.161 E28.12761
G1 X80.925 Y104.232 E29.03573
G1 X80.925 Y103.509 E29.07423
G1 X92.567 Y91.866 E29.95002
G1 X92.035 Y91.675 E29.98011
G1 X80.925 Y102.785 E30.81585
G1 X80.925 Y102.061 E30.85435
G1 X91.311 Y91.675 E31.63564
G1 X90.587 Y91.675 E31.67414
G1 X80.925 Y101.337 E32.40099
G1 X80.925 Y100.613 E32.43949
G1 X89.863 Y91.675 E33.11189
G1 X89.140 Y91.675 E33.15039
G1 X80.925 Y99.890 E33.76834
G1 X80.925 Y99.166 E33.80684
G1 X88.416 Y91.675 E34.37035
G1 X87.692 Y91.675 E34.40885
G1 X80.925 Y98.442 E34.91791
G1 X80.925 Y97.718 E34.95641
G1 X86.968 Y91.675 E35.41103
G1 X86.245 Y91.675 E35.44953
G1 X80.925 Y96.995 E35.84970
G1 X80.925 Y96.271 E35.88820
G1 X85.521 Y91.675 E36.23392
G1 X84.797 Y91.675 E36.27242
G1 X80.925 Y95.547 E36.56370
G1 X80.925 Y94.823 E36.60220
G1 X84.073 Y91.675 E36.83903
G1 X83.350 Y91.675 E36.87753
G1 X80.925 Y94.100 E37.05991
G1 X80.925 Y93.376 E37.09841
G1 X82.626 Y91.675 E37.22635
G1 X81.902 Y91.675 E37.26485
G1 X80.925 Y92.652 E37.33834
G1 X80.925 Y91.928 E37.37684
G1 X81.178 Y91.675 E37.39589
G1 Z0.750 F7800.000
G1 E33.39589 F1500.00000
G92 E0
G1 X115.298 Y106.247 F7800.000
G1 E4.00000 F1500.00000
G1 X115.376 Y105.762 E4.01770 F900.000
G1 X115.526 Y105.399 E4.03183
G1 X115.797 Y105.047 E4.04782
G1 X116.149 Y104.776 E4.06381
G1 X116.560 Y104.606 E4.07980
G1 X116.949 Y104.555 E4.09393 F900.000
G1 X117.438 Y104.605 E4.11163
G1 X117.851 Y104.776 E4.12773
G1 X118.203 Y105.047 E4.14372
G1 X118.474 Y105.399 E4.15971
G1 X118.644 Y105.810 E4.17570
G1 X118.702 Y106.253 E4.19180
G1 X118.624 Y106.738 E4.20950
G1 X118.474 Y107.101 E4.22363
G1 X118.203 Y107.453 E4.23962
G1 X117.851 Y107.724 E4.25561
G1 X117.440 Y107.894 E4.27160
G1 X117.000 Y107.952 E4.28759
G1 X116.560 Y107.894 E4.30359
G1 X116.149 Y107.724 E4.31958
G1 X115.797 Y107.453 E4.33557
G1 X115.526 Y107.101 E4.35156
G1 X115.356 Y106.690 E4.36755
G1 X115.306 Y106.307 E4.38149
G1 X114.965 Y106.026 F7800.000
G1 X114.221 Y106.105 F7800.000
G1 X114.297 Y105.526 E4.40253 F900.000
G1 X114.577 Y104.851 E4.42883
G1 X115.021 Y104.271 E4.45513
G1 X115.601 Y103.827 E4.48143
G1 X116.276 Y103.547 E4.50772
G1 X117.000 Y103.452 E4.53402
G1 X117.297 Y103.491 E4.54482
G1 X117.724 Y103.547 E4.56032 F900.000
G1 X118.399 Y103.827 E4.58661
G1 X118.979 Y104.271 E4.61291
G1 X119.423 Y104.851 E4.63921
G1 X119.703 Y105.526 E4.66551
G1 X119.798 Y106.250 E4.69180
G1 X119.703 Y106.974 E4.71810
G1 X119.423 Y107.649 E4.74440
G1 X118.979 Y108.229 E4.77069
G1 X118.399 Y108.673 E4.79699
G1 X117.724 Y108.953 E4.82329
G1 X117.000 Y109.048 E4.84958
G1 X116.276 Y108.953 E4.87588
G1 X115.601 Y108.673 E4.90218
G1 X115.021 Y108.229 E4.92848
G1 X114.577 Y107.649 E4.95477
G1 X114.297 Y106.974 E4.98107
G1 X114.202 Y106.250 E5.00737
G1 X114.213 Y106.165 E5.01046
G1 X114.590 Y105.952 F7800.000
G1 X114.758 Y106.184 F7800.000
G1 X114.833 Y105.669 E5.06769 F1200.000
G1 X115.035 Y105.165 E5.12744
G1 X115.410 Y104.660 E5.19672
G1 X115.876 Y104.303 E5.26133
G1 X116.377 Y104.093 E5.32115
G1 X117.000 Y104.007 E5.39034
G1 X117.617 Y104.091 E5.45888
G1 X118.124 Y104.303 E5.51938
G1 X118.590 Y104.660 E5.58399
G1 X118.965 Y105.165 E5.65326
G1 X119.172 Y105.668 E5.71309
G1 X119.249 Y106.250 E5.77770
G1 X119.167 Y106.831 E5.84224
G1 X118.965 Y107.335 E5.90199
G1 X118.590 Y107.840 E5.97127
G1 X118.085 Y108.215 E6.04054
G1 X117.582 Y108.422 E6.10037
G1 X117.000 Y108.499 E6.16498
G1 X116.418 Y108.422 E6.22959
G1 X115.915 Y108.215 E6.28941
G1 X115.410 Y107.840 E6.35869
G1 X115.053 Y107.374 E6.42330
G1 X114.843 Y106.873 E6.48312
G1 X114.752 Y106.244 E6.55310
G1 E2.55310 F1500.00000
G92 E0
G1 X101.375 Y105.625 F7800.000
G1 E4.00000 F1500.00000
G1 X80.625 Y105.625 E5.08413 F3600.000
G1 X80.625 Y91.375 E5.82868
G1 X92.307 Y91.375 E6.43902
G1 X101.375 Y97.579 E7.01310
G1 X101.375 Y105.565 E7.43033
G1 X101.800 Y106.050 F7800.000
G1 X80.200 Y106.050 E8.20791 F1800.000
G1 X80.200 Y90.950 E8.75149
G1 X92.438 Y90.950 E9.19205
G1 X101.800 Y97.355 E9.60040
G1 X101.800 Y105.990 E9.91123
G1 X101.454 Y105.850 F7800.000
G1 X101.075 Y97.931 F7800.000
G1 X100.765 Y97.621 E9.93437 F1200.000
G1 X101.075 Y98.650 E9.99105
G1 X98.491 Y96.065 E10.18395
G1 X96.217 Y94.509 F7800.000
