; generated by Slic3r 1.2.9 on 2016-01-06 at 19:23:25

; external perimeters extrusion width = 0.40mm
; perimeters extrusion width = 0.43mm
; infill extrusion width = 0.43mm
; solid infill extrusion width = 0.43mm
; top infill extrusion width = 0.43mm

M107
G28 ; home all axes

G21 ; set units to millimeters
G90 ; use absolute coordinates
M82 ; use absolute distances for extrusion
G92 E0
G1 Z0.350 F7800.000
G1 E-4.00000 F1500.00000
G92 E0
G1 X75.381 Y90.254 F7800.000
G1 E4.00000 F1500.00000
G1 X90.753 Y77.415 E5.82117 F1800.000
G1 X92.741 Y76.272 E6.02971
G1 X95.000 Y75.875 E6.23823
G1 X130.000 Y75.875 E9.42077
G1 X132.259 Y76.272 E9.62931
G1 X134.247 Y77.415 E9.83785 F1800.000
G1 X135.726 Y79.168 E10.04639
G1 X136.519 Y81.320 E10.25494
G1 X136.625 Y82.500 E10.36265
G1 X136.625 Y117.500 E13.54518
G1 X136.228 Y119.759 E13.75372
G1 X135.085 Y121.747 E13.96227
G1 X133.332 Y123.226 E14.17081
G1 X131.180 Y124.019 E14.37935
G1 X130.000 Y124.125 E14.48706
G1 X95.000 Y124.125 E17.66960
G1 X93.701 Y123.996 E17.78831
G1 X68.701 Y118.996 E20.10657
G1 X66.564 Y118.164 E20.31511
G1 X64.838 Y116.653 E20.52366
G1 X63.732 Y114.644 E20.73220
G1 X63.375 Y112.500 E20.92984
G1 X63.375 Y103.380 E21.75910
G1 X63.772 Y101.121 E21.96764
G1 X64.915 Y99.133 E22.17618
G1 X65.753 Y98.296 E22.28391
G1 X75.335 Y90.293 E23.41911
G1 E19.41911 F1500.00000
G92 E0
G1 X98.400 Y114.100 F7800.000
G1 E4.00000 F1500.00000
G1 X128.400 Y114.100 E6.72789 F1800.000
G1 X128.400 Y115.900 E6.89160
G1 X95.663 Y115.900 E9.86841
G1 X90.663 Y110.900 E10.51138
G1 X71.600 Y110.900 E12.24476
G1 X71.600 Y104.980 E12.78308
G1 X90.663 Y104.980 E14.51646
G1 X96.600 Y99.043 E15.27994
G1 X96.600 Y84.100 E16.63871
G1 X128.400 Y84.100 E19.53031
G1 X128.400 Y85.900 E19.69403
G1 X98.400 Y85.900 E22.42191
G1 X98.400 Y114.040 E24.98063
G1 X99.025 Y113.475 F7800.000
G1 X129.025 Y113.475 E27.70852 F1800.000
G1 X129.025 Y116.525 E27.98588
G1 X95.404 Y116.525 E31.04305
G1 X90.404 Y111.525 E31.68601
G1 X70.975 Y111.525 E33.45268
G1 X70.975 Y104.355 E34.10464
G1 X90.404 Y104.355 E35.87130
G1 X95.975 Y98.784 E36.58771
G1 X95.975 Y83.475 E37.97977
G1 X129.025 Y83.475 E40.98501
G1 X129.025 Y86.525 E41.26237
G1 X99.025 Y86.525 E43.99025
G1 X99.025 Y113.415 E46.43533
G1 X99.650 Y112.850 F7800.000
G1 X129.650 Y112.850 E49.16322 F1800.000
G1 X129.650 Y117.150 E49.55421
G1 X95.145 Y117.150 E52.69174
G1 X90.145 Y112.150 E53.33471
G1 X70.350 Y112.150 E55.13466
G1 X70.350 Y103.730 E55.90026
G1 X90.145 Y103.730 E57.70021
G1 X95.350 Y98.525 E58.36955
G1 X95.350 Y82.850 E59.79489
G1 X129.650 Y82.850 E62.91377
G1 X129.650 Y87.150 E63.30477
G1 X99.650 Y87.150 E66.03266
G1 X99.650 Y112.790 E68.36409
G1 X99.650 Y113.250 F7800.000
G1 X98.022 Y114.120 F7800.000
G1 X89.261 Y105.359 E69.49310 F1800.000
G1 X90.146 Y105.359 E69.57380
G1 X98.022 Y113.234 E70.58868
G1 X98.022 Y112.348 E70.66938
G1 X90.887 Y105.214 E71.58882
G1 X91.330 Y104.771 E71.64588
G1 X98.022 Y111.463 E72.50827
G1 X98.022 Y110.577 E72.58897
G1 X91.772 Y104.328 E73.39428
G1 X92.215 Y103.885 E73.45135
G1 X98.022 Y109.691 E74.19960
G1 X98.022 Y108.806 E74.28030
G1 X92.658 Y103.442 E74.97149
G1 X93.101 Y103.000 E75.02856
G1 X98.022 Y107.920 E75.66268
G1 X98.022 Y107.035 E75.74338
G1 X93.544 Y102.557 E76.32045
G1 X93.987 Y102.114 E76.37751
G1 X98.022 Y106.149 E76.89751
G1 X98.022 Y105.263 E76.97821
G1 X94.429 Y101.671 E77.44115
G1 X94.872 Y101.228 E77.49821
G1 X98.022 Y104.378 E77.90408
G1 X98.022 Y103.492 E77.98478
G1 X95.315 Y100.785 E78.33359
G1 X95.758 Y100.343 E78.39065
G1 X98.022 Y102.607 E78.68240
G1 X98.022 Y101.721 E78.76310
G1 X96.201 Y99.900 E78.99778
G1 X96.643 Y99.457 E79.05484
G1 X98.022 Y100.835 E79.23246
G1 X98.022 Y99.950 E79.31316
G1 X96.978 Y98.906 E79.44761
G1 X96.978 Y98.021 E79.52831
G1 X98.022 Y99.064 E79.66275
G1 X98.022 Y98.179 E79.74345
G1 X96.978 Y97.135 E79.87790
G1 X96.978 Y96.250 E79.95860
G1 X98.022 Y97.293 E80.09305
G1 X98.022 Y96.407 E80.17375
G1 X96.978 Y95.364 E80.30820
G1 X96.978 Y94.478 E80.38890
G1 X98.022 Y95.522 E80.52334
G1 X98.022 Y94.636 E80.60404
G1 X96.978 Y93.593 E80.73849
G1 X96.978 Y92.707 E80.81919
G1 X98.022 Y93.750 E80.95364
G1 X98.022 Y92.865 E81.03434
G1 X96.978 Y91.822 E81.16879
G1 X96.978 Y90.936 E81.24949
G1 X98.022 Y91.979 E81.38393
G1 X98.022 Y91.094 E81.46463
G1 X96.978 Y90.050 E81.59908
G1 X96.978 Y89.165 E81.67978
G1 X98.022 Y90.208 E81.81423
G1 X98.022 Y89.322 E81.89493
G1 X96.978 Y88.279 E82.02938
G1 X96.978 Y87.393 E82.11008
G1 X98.022 Y88.437 E82.24452
G1 X98.022 Y87.551 E82.32522
G1 X96.978 Y86.508 E82.45967
G1 X96.978 Y85.622 E82.54037
G1 X98.022 Y86.666 E82.67482
G1 X98.022 Y85.780 E82.75552
G1 X96.978 Y84.737 E82.88996
G1 X97.606 Y84.478 E82.95178
G1 X98.649 Y85.522 E83.08623
G1 X99.535 Y85.522 E83.16693
G1 X98.491 Y84.478 E83.30138
G1 X99.377 Y84.478 E83.38208
G1 X100.420 Y85.522 E83.51653
G1 X101.306 Y85.522 E83.59723
G1 X100.263 Y84.478 E83.73167
G1 X101.148 Y84.478 E83.81237
G1 X102.191 Y85.522 E83.94682
G1 X103.077 Y85.522 E84.02752
G1 X102.034 Y84.478 E84.16197
G1 X102.919 Y84.478 E84.24267
G1 X103.963 Y85.522 E84.37712
G1 X104.848 Y85.522 E84.45782
G1 X103.805 Y84.478 E84.59226
G1 X104.691 Y84.478 E84.67296
G1 X105.734 Y85.522 E84.80741
G1 X106.619 Y85.522 E84.88811
G1 X105.576 Y84.478 E85.02256
G1 X106.462 Y84.478 E85.10326
G1 X107.505 Y85.522 E85.23771
G1 X108.391 Y85.522 E85.31841
G1 X107.347 Y84.478 E85.45285
G1 X108.233 Y84.478 E85.53355
G1 X109.276 Y85.522 E85.66800
G1 X110.162 Y85.522 E85.74870
G1 X109.119 Y84.478 E85.88315
G1 X110.004 Y84.478 E85.96385
G1 X111.048 Y85.522 E86.09830
G1 X111.933 Y85.522 E86.17900
G1 X110.890 Y84.478 E86.31344
G1 X111.775 Y84.478 E86.39414
G1 X112.819 Y85.522 E86.52859
G1 X113.704 Y85.522 E86.60929
G1 X112.661 Y84.478 E86.74374
G1 X113.547 Y84.478 E86.82444
G1 X114.590 Y85.522 E86.95889
G1 X115.476 Y85.522 E87.03959
G1 X114.432 Y84.478 E87.17403
G1 X115.318 Y84.478 E87.25473
G1 X116.361 Y85.522 E87.38918
G1 X117.247 Y85.522 E87.46988
G1 X116.204 Y84.478 E87.60433
G1 X117.089 Y84.478 E87.68503
G1 X118.132 Y85.522 E87.81948
G1 X119.018 Y85.522 E87.90018
G1 X117.975 Y84.478 E88.03462
G1 X118.860 Y84.478 E88.11532
G1 X119.904 Y85.522 E88.24977
G1 X120.789 Y85.522 E88.33047
G1 X119.746 Y84.478 E88.46492
G1 X120.632 Y84.478 E88.54562
G1 X121.675 Y85.522 E88.68007
G1 X122.561 Y85.522 E88.76077
G1 X121.517 Y84.478 E88.89521
G1 X122.403 Y84.478 E88.97591
G1 X123.446 Y85.522 E89.11036
G1 X124.332 Y85.522 E89.19106
G1 X123.288 Y84.478 E89.32551
G1 X124.174 Y84.478 E89.40621
G1 X125.217 Y85.522 E89.54066
G1 X126.103 Y85.522 E89.62136
G1 X125.060 Y84.478 E89.75580
G1 X125.945 Y84.478 E89.83650
G1 X126.989 Y85.522 E89.97095
G1 X127.874 Y85.522 E90.05165
G1 X126.831 Y84.478 E90.18610
G1 X127.717 Y84.478 E90.26680
G1 X128.022 Y84.783 E90.30612
G1 E86.30612 F1500.00000
G92 E0
G1 X127.606 Y114.478 F7800.000
G1 E4.00000 F1500.00000
G1 X128.022 Y114.894 E4.05360 F1800.000
G1 X127.763 Y115.522 E4.11542
G1 X126.720 Y114.478 E4.24987
G1 X125.834 Y114.478 E4.33057
G1 X126.878 Y115.522 E4.46502
G1 X125.992 Y115.522 E4.54572
G1 X124.949 Y114.478 E4.68017
G1 X124.063 Y114.478 E4.76087
G1 X125.107 Y115.522 E4.89531
G1 X124.221 Y115.522 E4.97601
G1 X123.178 Y114.478 E5.11046
G1 X122.292 Y114.478 E5.19116
G1 X123.335 Y115.522 E5.32561
G1 X122.450 Y115.522 E5.40631
G1 X121.406 Y114.478 E5.54076
G1 X120.521 Y114.478 E5.62146
G1 X121.564 Y115.522 E5.75590
G1 X120.678 Y115.522 E5.83660
G1 X119.635 Y114.478 E5.97105
G1 X118.750 Y114.478 E6.05175
G1 X119.793 Y115.522 E6.18620
G1 X118.907 Y115.522 E6.26690
G1 X117.864 Y114.478 E6.40135
G1 X116.978 Y114.478 E6.48205
G1 X118.022 Y115.522 E6.61649
G1 X117.136 Y115.522 E6.69719
G1 X116.093 Y114.478 E6.83164
G1 X115.207 Y114.478 E6.91234
G1 X116.250 Y115.522 E7.04679
G1 X115.365 Y115.522 E7.12749
G1 X114.321 Y114.478 E7.26194
G1 X113.436 Y114.478 E7.34264
G1 X114.479 Y115.522 E7.47708
G1 X113.594 Y115.522 E7.55778
G1 X112.550 Y114.478 E7.69223
G1 X111.665 Y114.478 E7.77293
G1 X112.708 Y115.522 E7.90738
G1 X111.822 Y115.522 E7.98808
G1 X110.779 Y114.478 E8.12253
G1 X109.893 Y114.478 E8.20323
G1 X110.937 Y115.522 E8.33767
G1 X110.051 Y115.522 E8.41837
G1 X109.008 Y114.478 E8.55282
G1 X108.122 Y114.478 E8.63352
G1 X109.165 Y115.522 E8.76797
G1 X108.280 Y115.522 E8.84867
G1 X107.237 Y114.478 E8.98312
G1 X106.351 Y114.478 E9.06382
G1 X107.394 Y115.522 E9.19826
G1 X106.509 Y115.522 E9.27896
G1 X105.465 Y114.478 E9.41341
G1 X104.580 Y114.478 E9.49411
G1 X105.623 Y115.522 E9.62856
G1 X104.737 Y115.522 E9.70926
G1 X103.694 Y114.478 E9.84371
G1 X102.809 Y114.478 E9.92441
G1 X103.852 Y115.522 E10.05885
G1 X102.966 Y115.522 E10.13955
G1 X101.923 Y114.478 E10.27400
G1 X101.037 Y114.478 E10.35470
G1 X102.081 Y115.522 E10.48915
G1 X101.195 Y115.522 E10.56985
G1 X100.152 Y114.478 E10.70429
G1 X99.266 Y114.478 E10.78500
G1 X100.309 Y115.522 E10.91944
G1 X99.424 Y115.522 E11.00014
G1 X98.380 Y114.478 E11.13459
G1 X98.538 Y115.522 F7800.000
G1 X88.375 Y105.359 E12.44428 F1800.000
G1 X87.489 Y105.359 E12.52498
G1 X97.653 Y115.522 E13.83467
G1 X96.767 Y115.522 E13.91537
G1 X86.604 Y105.359 E15.22507
G1 X85.718 Y105.359 E15.30577
G1 X90.881 Y110.522 E15.97112
G1 X89.996 Y110.522 E16.05182
G1 X84.833 Y105.359 E16.71717
G1 X83.947 Y105.359 E16.79787
G1 X89.110 Y110.522 E17.46322
G1 X88.224 Y110.522 E17.54392
G1 X83.061 Y105.359 E18.20927
G1 X82.176 Y105.359 E18.28997
G1 X87.339 Y110.522 E18.95532
G1 X86.453 Y110.522 E19.03602
G1 X81.290 Y105.359 E19.70137
G1 X80.405 Y105.359 E19.78207
G1 X85.568 Y110.522 E20.44742
G1 X84.682 Y110.522 E20.52812
G1 X79.519 Y105.359 E21.19347
G1 X78.633 Y105.359 E21.27417
G1 X83.796 Y110.522 E21.93952
G1 X82.911 Y110.522 E22.02022
G1 X77.748 Y105.359 E22.68557
G1 X76.862 Y105.359 E22.76627
G1 X82.025 Y110.522 E23.43162
G1 X81.140 Y110.522 E23.51232
G1 X75.977 Y105.359 E24.17768
G1 X75.091 Y105.359 E24.25838
G1 X80.254 Y110.522 E24.92373
G1 X79.368 Y110.522 E25.00443
G1 X74.205 Y105.359 E25.66978
G1 X73.320 Y105.359 E25.75048
G1 X78.483 Y110.522 E26.41583
G1 X77.597 Y110.522 E26.49653
G1 X72.434 Y105.359 E27.16188
G1 X71.978 Y105.789 E27.21897
G1 X76.711 Y110.522 E27.82892
G1 X75.826 Y110.522 E27.90962
G1 X71.978 Y106.674 E28.40544
G1 X71.978 Y107.560 E28.48614
G1 X74.940 Y110.522 E28.86784
G1 X74.055 Y110.522 E28.94854
G1 X71.978 Y108.445 E29.21611
G1 X71.978 Y109.331 E29.29681
G1 X73.169 Y110.522 E29.45025
G1 X72.283 Y110.522 E29.53095
G1 X71.978 Y110.217 E29.57026
G1 Z0.700 F7800.000
G1 X99.099 Y113.401 F7800.000
G1 X129.099 Y113.401 E31.13761 F3600.000
G1 X129.099 Y116.599 E31.30469
G1 X95.373 Y116.599 E33.06669
G1 X90.373 Y111.599 E33.43612
G1 X70.901 Y111.599 E34.45344
G1 X70.901 Y104.042 E34.84826
G1 X90.373 Y104.042 E35.86559
G1 X95.901 Y98.514 E36.27401
G1 X95.901 Y83.401 E37.06359
G1 X129.099 Y83.401 E38.79801
G1 X129.099 Y86.599 E38.96509
G1 X99.099 Y86.599 E40.53244
G1 X99.099 Y113.341 E41.92957
G1 X99.458 Y113.042 F7800.000
G1 X129.458 Y113.042 E43.49692 F3600.000
G1 X129.458 Y116.958 E43.70152
G1 X95.224 Y116.958 E45.49004
G1 X90.224 Y111.958 E45.85947
G1 X70.542 Y111.958 E46.88778
G1 X70.542 Y103.683 E47.32012
G1 X90.224 Y103.683 E48.34844
G1 X95.542 Y98.365 E48.74132
G1 X95.542 Y83.042 E49.54189
G1 X129.458 Y83.042 E51.31383
G1 X129.458 Y86.958 E51.51842
G1 X99.458 Y86.958 E53.08577
G1 X99.458 Y112.982 E54.44539
G1 X99.800 Y112.700 F7800.000
G1 X129.800 Y112.700 E55.86366 F1800.000
G1 X129.800 Y117.300 E56.08112
G1 X95.083 Y117.300 E57.72240
G1 X90.083 Y112.300 E58.05669
G1 X70.200 Y112.300 E58.99666
G1 X70.200 Y103.341 E59.42022
G1 X90.083 Y103.341 E60.36019
G1 X95.200 Y98.224 E60.70231
G1 X95.200 Y82.700 E61.43620
G1 X129.800 Y82.700 E63.07194
G1 X129.800 Y87.300 E63.28941
G1 X99.800 Y87.300 E64.70768
G1 X99.800 Y112.640 E65.90564
G1 X99.800 Y113.100 F7800.000
G1 X90.220 Y104.251 F7800.000
G1 X83.081 Y111.390 E66.43679 F1200.000
G1 X82.569 Y111.390 E66.46369
G1 X89.709 Y104.251 E66.99483
G1 X89.197 Y104.251 E67.02173
G1 X82.058 Y111.390 E67.55288
G1 X81.547 Y111.390 E67.57977
G1 X88.686 Y104.251 E68.11092
G1 X88.175 Y104.251 E68.13782
G1 X81.035 Y111.390 E68.66896
G1 X80.524 Y111.390 E68.69586
G1 X87.663 Y104.251 E69.22701
G1 X87.152 Y104.251 E69.25390
G1 X80.013 Y111.390 E69.78505
G1 X79.502 Y111.390 E69.81195
G1 X86.641 Y104.251 E70.34309
G1 X86.130 Y104.251 E70.36999
G1 X78.990 Y111.390 E70.90114
G1 X78.479 Y111.390 E70.92803
G1 X85.618 Y104.251 E71.45918
G1 X85.107 Y104.251 E71.48608
G1 X77.968 Y111.390 E72.01722
G1 X77.456 Y111.390 E72.04412
G1 X84.596 Y104.251 E72.57527
G1 X84.084 Y104.251 E72.60217
G1 X76.945 Y111.390 E73.13331
G1 X76.434 Y111.390 E73.16021
G1 X83.573 Y104.251 E73.69135
G1 X83.062 Y104.251 E73.71825
G1 X75.923 Y111.390 E74.24940
G1 X75.411 Y111.390 E74.27630
G1 X82.551 Y104.251 E74.80744
G1 X82.039 Y104.251 E74.83434
G1 X74.900 Y111.390 E75.36548
G1 X74.389 Y111.390 E75.39238
G1 X81.528 Y104.251 E75.92353
G1 X81.017 Y104.251 E75.95043
G1 X73.877 Y111.390 E76.48157
G1 X73.366 Y111.390 E76.50847
G1 X80.505 Y104.251 E77.03962
G1 X79.994 Y104.251 E77.06651
G1 X72.855 Y111.390 E77.59766
G1 X72.344 Y111.390 E77.62456
G1 X79.483 Y104.251 E78.15570
G1 X78.972 Y104.251 E78.18260
G1 X71.832 Y111.390 E78.71375
G1 X71.321 Y111.390 E78.74064
G1 X78.460 Y104.251 E79.27179
G1 X77.949 Y104.251 E79.29869
G1 X71.110 Y111.090 E79.80750
G1 X71.110 Y110.578 E79.83439
G1 X77.438 Y104.251 E80.30516
G1 X76.926 Y104.251 E80.33206
G1 X71.110 Y110.067 E80.76479
G1 X71.110 Y109.556 E80.79169
G1 X76.415 Y104.251 E81.18638
G1 X75.904 Y104.251 E81.21328
G1 X71.110 Y109.045 E81.56994
G1 X71.110 Y108.533 E81.59683
G1 X75.393 Y104.251 E81.91545
G1 X74.881 Y104.251 E81.94235
G1 X71.110 Y108.022 E82.22292
G1 X71.110 Y107.511 E82.24982
G1 X74.370 Y104.251 E82.49236
G1 X73.859 Y104.251 E82.51926
G1 X71.110 Y106.999 E82.72376
G1 X71.110 Y106.488 E82.75066
G1 X73.347 Y104.251 E82.91712
G1 X72.836 Y104.251 E82.94401
G1 X71.110 Y105.977 E83.07244
G1 X71.110 Y105.466 E83.09933
G1 X72.325 Y104.251 E83.18972
G1 X71.814 Y104.251 E83.21661
G1 X71.110 Y104.954 E83.26896
G1 X71.110 Y104.443 E83.29586
G1 X71.302 Y104.251 E83.31016
G1 E79.31016 F1500.00000
G92 E0
G1 X96.110 Y84.045 F7800.000
G1 E4.00000 F1500.00000
G1 X96.545 Y83.610 E4.03234 F1200.000
G1 X97.056 Y83.610 E4.05923
G1 X96.110 Y84.556 E4.12961
G1 X96.110 Y85.067 E4.15651
G1 X97.567 Y83.610 E4.26492
G1 X98.078 Y83.610 E4.29182
G1 X96.110 Y85.578 E4.43827
G1 X96.110 Y86.090 E4.46517
G1 X98.590 Y83.610 E4.64966
G1 X99.101 Y83.610 E4.67655
G1 X96.110 Y86.601 E4.89908
G1 X96.110 Y87.112 E4.92598
G1 X99.612 Y83.610 E5.18655
G1 X100.124 Y83.610 E5.21345
G1 X96.110 Y87.624 E5.51205
G1 X96.110 Y88.135 E5.53895
G1 X100.635 Y83.610 E5.87560
G1 X101.146 Y83.610 E5.90250
G1 X96.110 Y88.646 E6.27718
G1 X96.110 Y89.157 E6.30408
G1 X98.890 Y86.377 E6.51091
G1 X99.389 Y86.390 E6.53715
G1 X102.169 Y83.610 E6.74398
G1 X101.657 Y83.610 E6.77088
G1 X98.877 Y86.390 E6.97770
G1 X98.890 Y86.889 E7.00395
G1 X96.110 Y89.669 E7.21078
G1 X96.110 Y90.180 E7.23768
G1 X98.890 Y87.400 E7.44450
G1 X98.890 Y87.911 E7.47140
G1 X96.110 Y90.691 E7.67823
G1 X96.110 Y91.203 E7.70513
G1 X98.890 Y88.423 E7.91195
G1 X98.890 Y88.934 E7.93885
G1 X96.110 Y91.714 E8.14568
G1 X96.110 Y92.225 E8.17258
G1 X98.890 Y89.445 E8.37940
G1 X98.890 Y89.956 E8.40630
G1 X96.110 Y92.736 E8.61313
G1 X96.110 Y93.248 E8.64003
G1 X98.890 Y90.468 E8.84685
G1 X98.890 Y90.979 E8.87375
G1 X96.110 Y93.759 E9.08058
G1 X96.110 Y94.270 E9.10747
G1 X98.890 Y91.490 E9.31430
G1 X98.890 Y92.002 E9.34120
G1 X96.110 Y94.782 E9.54803
G1 X96.110 Y95.293 E9.57492
G1 X98.890 Y92.513 E9.78175
